;FLAVOR:Marlin
;TIME:46703
;Filament used: 59.4069m
;Layer height: 0.28
;MINX:0
;MINY:0
;MINZ:0.28
;MAXX:220
;MAXY:220
;MAXZ:10.08
;TARGET_MACHINE.NAME:Creality Ender-3 S1
;Generated with Cura_SteamEngine 5.6.0
M82 ;absolute extrusion mode
; Ender 3 S1 Start G-code
; M413 S0 ; Disable power loss recovery
G92 E0 ; Reset Extruder

; Prep surfaces before auto home for better accuracy
M140 S60
M104 S200

G28 ; Home all axes
G1 Z10.0 F3000 ; Move Z Axis up little to prevent scratching of Heat Bed
G1 X0 Y0

M190 S60
M109 S200

G1 X0.1 Y20 Z0.3 F5000.0 ; Move to start position
G1 X0.1 Y200.0 Z0.3 F1500.0 E15 ; Draw the first line
G1 X0.4 Y200.0 Z0.3 F5000.0 ; Move to side a little
G1 X0.4 Y20 Z0.3 F1500.0 E30 ; Draw the second line
G92 E0 ; Reset Extruder
G1 Z2.0 F3000 ; Move Z Axis up little to prevent scratching of Heat Bed
G1 X5 Y20 Z0.3 F5000.0 ; Move over to prevent blob squish

G92 E0
G92 E0
G1 F2400 E-0.8
;LAYER_COUNT:36
;LAYER:0
M107
M204 S2000
G0 F7500 X8.492 Y0.00 Z0.28
M204 S500
;TYPE:SKIRT
G1 F2400 E0
G1 F1500 X7.711 Y0.39 E0.04065
G1 X6.852 Y0.92 E0.08765
G1 X6.099 Y1.482 E0.1314
G1 X5.372 Y2.13 E0.17675
G1 X4.682 Y2.866 E0.22372
G1 X4.103 Y3.605 E0.26744
G1 X3.553 Y4.452 E0.31446
G1 X3.114 Y5.282 E0.35819
G1 X2.735 Y6.177 E0.40344
G1 X2.436 Y7.105 E0.44884
G1 X2.208 Y8.124 E0.49746
G1 X2.089 Y9.019 E0.53951
G1 X1.881 Y11.409 E0.65122
G1 X1.598 Y13.905 E0.76818
G1 X1.245 Y16.381 E0.88464
G1 X0.82 Y18.864 E1.00194
G1 X0.33 Y21.298 E1.11755
G1 X0.00 Y22.735 E1.18621
M204 S2000
G1 F2400 E0.38621
G0 F7500 X9.565 Y0.00
M204 S500
G1 F2400 E1.18621
G1 F1500 X8.729 Y0.329 E1.22804
G1 X7.89 Y0.748 E1.27171
G1 X7.091 Y1.241 E1.31543
G1 X6.338 Y1.803 E1.35918
G1 X5.638 Y2.428 E1.40288
G1 X4.997 Y3.113 E1.44656
G1 X4.418 Y3.852 E1.49027
G1 X3.907 Y4.639 E1.53397
G1 X3.468 Y5.469 E1.57769
G1 X3.103 Y6.333 E1.62136
G1 X2.817 Y7.227 E1.66507
G1 X2.605 Y8.177 E1.71039
G1 X2.486 Y9.072 E1.75244
G1 X2.28 Y11.444 E1.8633
G1 X1.994 Y13.962 E1.9813
G1 X1.639 Y16.449 E2.09828
G1 X1.212 Y18.943 E2.2161
G1 X0.72 Y21.388 E2.33224
G1 X0.149 Y23.873 E2.45096
G1 X0.00 Y24.445 E2.47849
M204 S2000
G1 F2400 E1.67849
G0 F7500 X11.135 Y0.00
M204 S500
G1 F2400 E2.47849
G1 F1500 X10.581 Y0.112 E2.50481
G1 X9.715 Y0.369 E2.54687
G1 X8.876 Y0.701 E2.58888
G1 X8.069 Y1.106 E2.63093
G1 X7.301 Y1.581 E2.67298
G1 X6.578 Y2.123 E2.71505
G1 X5.905 Y2.726 E2.75713
G1 X5.289 Y3.386 E2.79917
G1 X4.733 Y4.098 E2.84123
G1 X4.243 Y4.856 E2.88326
G1 X3.822 Y5.655 E2.92531
G1 X3.472 Y6.488 E2.96739
G1 X3.198 Y7.348 E3.00941
G1 X3.002 Y8.23 E3.05149
G1 X2.883 Y9.125 E3.09353
G1 X2.677 Y11.489 E3.20402
G1 X2.39 Y14.019 E3.32258
G1 X2.033 Y16.517 E3.44008
G1 X1.604 Y19.022 E3.55843
G1 X1.11 Y21.478 E3.67508
G1 X0.536 Y23.974 E3.79434
G1 X0.00 Y26.03 E3.89327
M204 S2000
G1 F2400 E3.09327
G0 F7500 X0.00 Y73.028
M204 S500
G1 F2400 E3.89327
G1 F1500 X0.056 Y75.037 E3.98686
G1 X0.054 Y77.547 E4.10373
G1 X0.00 Y79.422 E4.19108
M204 S2000
G1 F2400 E3.39108
G0 F7500 X0.00 Y67.185
M204 S500
G1 F2400 E4.19108
G1 F1500 X0.033 Y67.476 E4.20471
G1 X0.245 Y70.009 E4.32307
G1 X0.386 Y72.515 E4.43995
G1 X0.456 Y75.037 E4.55743
G1 X0.454 Y77.559 E4.67486
G1 X0.38 Y80.128 E4.79453
G1 X0.239 Y82.597 E4.90969
G1 X0.00 Y85.319 E5.03692
M204 S2000
G1 F2400 E4.23692
G0 F7500 X0.00 Y63.885
M204 S500
G1 F2400 E5.03692
G1 F1500 X0.143 Y64.896 E5.08447
G1 X0.431 Y67.442 E5.20378
G1 X0.644 Y69.975 E5.32214
G1 X0.786 Y72.504 E5.44009
G1 X0.856 Y75.037 E5.55808
G1 X0.854 Y77.571 E5.67607
G1 X0.78 Y80.14 E5.79575
G1 X0.637 Y82.631 E5.91193
G1 X0.416 Y85.204 E6.03218
G1 X0.127 Y87.729 E6.15052
G1 X0.00 Y88.618 E6.19234
M204 S2000
G1 F2400 E5.39234
G0 F7500 X0.00 Y140.528
M204 S500
G1 F2400 E6.19234
G1 F1500 X0.056 Y142.537 E6.28592
G1 X0.054 Y145.047 E6.4028
G1 X0.00 Y146.922 E6.49014
M204 S2000
G1 F2400 E5.69014
G0 F7500 X0.00 Y134.685
M204 S500
G1 F2400 E6.49014
G1 F1500 X0.033 Y134.976 E6.50378
G1 X0.245 Y137.509 E6.62214
G1 X0.386 Y140.015 E6.73901
G1 X0.456 Y142.537 E6.85649
G1 X0.454 Y145.059 E6.97393
G1 X0.38 Y147.628 E7.0936
G1 X0.239 Y150.097 E7.20875
G1 X0.00 Y152.819 E7.33599
M204 S2000
G1 F2400 E6.53599
G0 F7500 X0.00 Y131.385
M204 S500
G1 F2400 E7.33599
G1 F1500 X0.143 Y132.396 E7.38353
G1 X0.431 Y134.942 E7.50284
G1 X0.644 Y137.475 E7.62121
G1 X0.786 Y140.004 E7.73915
G1 X0.856 Y142.537 E7.85714
G1 X0.854 Y145.071 E7.97514
G1 X0.78 Y147.64 E8.09481
G1 X0.637 Y150.131 E8.21099
G1 X0.416 Y152.704 E8.33124
G1 X0.127 Y155.229 E8.44959
G1 X0.00 Y156.118 E8.4914
M204 S2000
G1 F2400 E7.6914
G0 F7500 X0.00 Y197.264
M204 S500
G1 F2400 E8.4914
G1 F1500 X0.555 Y199.813 E8.61288
G1 X1.012 Y202.258 E8.7287
G1 X1.41 Y204.773 E8.84726
G1 X1.73 Y207.248 E8.96347
G1 X1.998 Y209.917 E9.08837
G1 X2.085 Y210.932 E9.13581
G1 X2.146 Y211.48 E9.16148
G1 X2.326 Y212.457 E9.20774
G1 X2.576 Y213.363 E9.25151
G1 X2.943 Y214.341 E9.30015
G1 X3.334 Y215.155 E9.3422
G1 X3.848 Y216.023 E9.38917
G1 X4.397 Y216.786 E9.43294
G1 X5.032 Y217.523 E9.47824
G1 X5.782 Y218.25 E9.52688
G1 X6.484 Y218.818 E9.56892
G1 X7.291 Y219.364 E9.61429
G1 X8.174 Y219.851 E9.66125
G1 X8.511 Y220 E9.67841
M204 S2000
G1 F2400 E8.87841
G0 F7500 X0.00 Y195.592
M204 S500
G1 F2400 E9.67841
G1 F1500 X0.417 Y197.285 E9.7596
G1 X0.946 Y199.728 E9.87599
G1 X1.407 Y202.195 E9.99285
G1 X1.807 Y204.722 E10.11198
G1 X2.128 Y207.208 E10.2287
G1 X2.397 Y209.883 E10.35389
G1 X2.484 Y210.898 E10.40133
G1 X2.544 Y211.436 E10.42653
G1 X2.712 Y212.351 E10.46985
G1 X2.962 Y213.257 E10.51361
G1 X3.304 Y214.168 E10.55893
G1 X3.695 Y214.982 E10.60097
G1 X4.173 Y215.789 E10.64465
G1 X4.722 Y216.552 E10.68842
G1 X5.335 Y217.262 E10.7321
G1 X6.034 Y217.939 E10.77741
G1 X6.736 Y218.507 E10.81946
G1 X7.515 Y219.032 E10.8632
G1 X8.336 Y219.485 E10.90686
G1 X9.195 Y219.865 E10.9506
G1 X9.592 Y220 E10.97012
M204 S2000
G1 F2400 E10.17012
G0 F7500 X0.00 Y194.007
M204 S500
G1 F2400 E10.97012
G1 F1500 X0.199 Y194.726 E11.00486
G1 X0.807 Y197.2 E11.12349
G1 X1.337 Y199.643 E11.23989
G1 X1.802 Y202.132 E11.3578
G1 X2.204 Y204.671 E11.4775
G1 X2.526 Y207.168 E11.59473
G1 X2.796 Y209.849 E11.7202
G1 X2.883 Y210.864 E11.76763
G1 X2.942 Y211.391 E11.79233
G1 X3.105 Y212.279 E11.83437
G1 X3.347 Y213.15 E11.87646
G1 X3.665 Y213.995 E11.9185
G1 X4.056 Y214.809 E11.96055
G1 X4.517 Y215.585 E12.00258
G1 X5.046 Y216.318 E12.04467
G1 X5.637 Y217 E12.08669
G1 X6.286 Y217.628 E12.12875
G1 X6.988 Y218.196 E12.17079
G1 X7.738 Y218.7 E12.21287
G1 X8.529 Y219.135 E12.2549
G1 X9.356 Y219.499 E12.29698
G1 X10.212 Y219.788 E12.33905
G1 X11.089 Y220 E12.38106
M204 S2000
G1 F2400 E11.58106
G0 F7500 X197.216 Y220
M204 S500
G1 F2400 E12.38106
G1 F1500 X197.954 Y219.637 E12.41936
G1 X198.787 Y219.132 E12.46472
G1 X199.571 Y218.556 E12.51002
G1 X200.329 Y217.887 E12.55709
G1 X200.936 Y217.297 E12.59651
G1 X220 Y198.229 E13.85204
M204 S2000
G1 F2400 E13.05204
G0 F7500 X196.146 Y220
M204 S500
G1 F2400 E13.85204
G1 F1500 X196.935 Y219.694 E13.89144
G1 X197.777 Y219.278 E13.93517
G1 X198.579 Y218.79 E13.97889
G1 X199.334 Y218.234 E14.02255
G1 X200.05 Y217.6 E14.06708
G1 X200.657 Y217.01 E14.1065
G1 X220 Y197.663 E15.3804
M204 S2000
G1 F2400 E14.5804
G0 F7500 X194.577 Y220
M204 S500
G1 F2400 E15.3804
G1 F1500 X195.081 Y219.901 E15.40431
G1 X195.949 Y219.649 E15.4464
G1 X196.79 Y219.321 E15.48843
G1 X197.599 Y218.92 E15.53048
G1 X198.37 Y218.449 E15.57255
G1 X199.096 Y217.912 E15.6146
G1 X199.771 Y217.313 E15.65662
G1 X200.378 Y216.723 E15.69604
G1 X220 Y197.097 E16.98831
M204 S2000
G1 F2400 E16.18831
G0 F7500 X220 Y21.768
M204 S500
G1 F2400 E16.98831
G1 F1500 X200.765 Y2.532 E18.255
G1 X200.24 Y2.028 E18.28889
G1 X199.229 Y1.18 E18.35033
G1 X198.411 Y0.627 E18.39631
G1 X197.558 Y0.156 E18.44168
G1 X197.205 Y0.00 E18.45965
M204 S2000
G0 F7500 X196.126 Y0.00
M204 S500
G1 F1500 X196.505 Y0.128 E18.47828
G1 X197.365 Y0.506 E18.52202
G1 X198.188 Y0.959 E18.56576
G1 X198.972 Y1.487 E18.60978
G1 X199.963 Y2.317 E18.66997
G1 X200.482 Y2.815 E18.70346
G1 X220 Y22.333 E19.98876
M204 S2000
G1 F2400 E19.18876
G0 F7500 X194.628 Y0.00
M204 S500
G1 F2400 E19.98876
G1 F1500 X195.489 Y0.207 E20.02999
G1 X196.345 Y0.495 E20.07205
G1 X197.173 Y0.857 E20.11412
G1 X197.965 Y1.291 E20.15618
G1 X198.715 Y1.794 E20.19823
G1 X199.706 Y2.624 E20.25842
G1 X200.199 Y3.098 E20.29026
G1 X219.683 Y22.581 E21.57329
G1 X220 Y22.907 E21.59446
M204 S2000
G1 F2400 E20.79446
G0 F7500 X192.95 Y9.339
G0 X12.383 Y9.347
G0 X6.248 Y40.201
M204 S500
G1 F2400 E21.59446
G1 F1500 X11.836 Y40.2 E21.85466
G1 X11.875 Y40.319 E21.86049
G1 X12.036 Y40.4 E21.86888
G1 X12.036 Y44.6 E22.06445
G1 X11.917 Y44.639 E22.07028
G1 X11.836 Y44.8 E22.07868
G1 X6.248 Y44.8 E22.33888
G1 X6.248 Y40.201 E22.55303
M204 S2000
G0 F7500 X6.648 Y40.601
M204 S500
G1 F1500 X11.588 Y40.6 E22.78305
G1 X11.636 Y40.637 E22.78587
G1 X11.636 Y44.352 E22.95886
G1 X11.599 Y44.4 E22.96168
G1 X6.648 Y44.4 E23.19222
G1 X6.648 Y40.601 E23.36912
M204 S2000
G0 F7500 X7.048 Y41.001
M204 S500
G1 F1500 X11.236 Y41 E23.56413
G1 X11.236 Y44 E23.70382
G1 X7.048 Y44 E23.89883
G1 X7.048 Y41.001 E24.03848
M204 S2000
G0 F7500 X7.448 Y41.401
M204 S500
G1 F1500 X10.836 Y41.4 E24.19624
G1 X10.836 Y43.6 E24.29868
G1 X7.448 Y43.6 E24.45644
G1 X7.448 Y41.401 E24.55883
M204 S2000
G0 F7500 X7.848 Y41.801
M204 S500
G1 F1500 X10.436 Y41.8 E24.67934
G1 X10.436 Y43.2 E24.74453
G1 X7.848 Y43.2 E24.86504
G1 X7.848 Y41.801 E24.93018
M204 S2000
G0 F7500 X8.248 Y42.201
M204 S500
G1 F1500 X10.036 Y42.2 E25.01344
G1 X10.036 Y42.8 E25.04138
G1 X8.248 Y42.8 E25.12464
G1 X8.248 Y42.201 E25.15253
M204 S2000
G1 F2400 E24.35253
G0 F7500 X6.248 Y107.701
M204 S500
G1 F2400 E25.15253
G1 F1500 X11.836 Y107.7 E25.41273
G1 X11.875 Y107.819 E25.41856
G1 X12.036 Y107.9 E25.42695
G1 X12.036 Y112.1 E25.62252
G1 X11.917 Y112.139 E25.62835
G1 X11.836 Y112.3 E25.63674
G1 X6.248 Y112.3 E25.89695
G1 X6.248 Y107.701 E26.11109
M204 S2000
G0 F7500 X6.648 Y108.101
M204 S500
G1 F1500 X11.588 Y108.1 E26.34112
G1 X11.636 Y108.137 E26.34394
G1 X11.636 Y111.852 E26.51693
G1 X11.599 Y111.9 E26.51975
G1 X6.648 Y111.9 E26.75029
G1 X6.648 Y108.101 E26.92719
M204 S2000
G0 F7500 X7.048 Y108.501
M204 S500
G1 F1500 X11.236 Y108.5 E27.1222
G1 X11.236 Y111.5 E27.26189
G1 X7.048 Y111.5 E27.4569
G1 X7.048 Y108.501 E27.59655
M204 S2000
G0 F7500 X7.448 Y108.901
M204 S500
G1 F1500 X10.836 Y108.9 E27.75431
G1 X10.836 Y111.1 E27.85675
G1 X7.448 Y111.1 E28.01451
G1 X7.448 Y108.901 E28.1169
M204 S2000
G0 F7500 X7.848 Y109.301
M204 S500
G1 F1500 X10.436 Y109.3 E28.23741
G1 X10.436 Y110.7 E28.3026
G1 X7.848 Y110.7 E28.42311
G1 X7.848 Y109.301 E28.48825
M204 S2000
G0 F7500 X8.248 Y109.701
M204 S500
G1 F1500 X10.036 Y109.7 E28.57151
G1 X10.036 Y110.3 E28.59945
G1 X8.248 Y110.3 E28.6827
G1 X8.248 Y109.701 E28.7106
M204 S2000
G1 F2400 E27.9106
G0 F7500 X6.248 Y175.201
M204 S500
G1 F2400 E28.7106
G1 F1500 X11.836 Y175.2 E28.9708
G1 X11.875 Y175.319 E28.97663
G1 X12.036 Y175.4 E28.98502
G1 X12.036 Y179.599 E29.18054
G1 X11.917 Y179.638 E29.18637
G1 X11.836 Y179.799 E29.19477
G1 X6.248 Y179.8 E29.45497
G1 X6.248 Y175.201 E29.66912
M204 S2000
G0 F7500 X6.648 Y175.601
M204 S500
G1 F1500 X11.588 Y175.6 E29.89914
G1 X11.636 Y175.637 E29.90197
G1 X11.636 Y179.351 E30.0749
G1 X11.599 Y179.399 E30.07773
G1 X6.648 Y179.4 E30.30827
G1 X6.648 Y175.601 E30.48516
M204 S2000
G0 F7500 X7.048 Y176.001
M204 S500
G1 F1500 X11.236 Y176 E30.68017
G1 X11.236 Y178.999 E30.81982
G1 X7.048 Y179 E31.01483
G1 X7.048 Y176.001 E31.15448
M204 S2000
G0 F7500 X7.448 Y176.401
M204 S500
G1 F1500 X10.836 Y176.4 E31.31224
G1 X10.836 Y178.599 E31.41463
G1 X7.448 Y178.6 E31.57239
G1 X7.448 Y176.401 E31.67479
M204 S2000
G0 F7500 X7.848 Y176.801
M204 S500
G1 F1500 X10.436 Y176.8 E31.79529
G1 X10.436 Y178.199 E31.86044
G1 X7.848 Y178.2 E31.98094
G1 X7.848 Y176.801 E32.04609
M204 S2000
G0 F7500 X8.248 Y177.201
M204 S500
G1 F1500 X10.036 Y177.2 E32.12935
G1 X10.036 Y177.799 E32.15724
G1 X8.248 Y177.8 E32.24049
G1 X8.248 Y177.201 E32.26839
M204 S2000
G1 F2400 E31.46839
G0 F7500 X44.542 Y189.2
M204 S500
G1 F2400 E32.26839
G1 F1500 X44.704 Y189.2 E32.27593
G1 X44.806 Y189.172 E32.28085
G1 X45.096 Y189 E32.29655
G1 X48.892 Y189 E32.47331
G1 X49.127 Y189.164 E32.48666
G1 X49.241 Y189.2 E32.49222
G1 X49.426 Y189.2 E32.50084
G1 X49.325 Y189.448 E32.51331
G1 X49.32 Y189.46 E32.51391
G1 X49.177 Y189.893 E32.53514
G1 X48.956 Y190.208 E32.55306
G1 X48.777 Y190.416 E32.56584
G1 X48.578 Y190.602 E32.57852
G1 X48.04 Y190.882 E32.60677
G1 X47.789 Y190.96 E32.619
G1 X47.498 Y190.999 E32.63268
G1 X46.363 Y190.998 E32.68553
G1 X45.792 Y190.816 E32.71343
G1 X45.562 Y190.686 E32.72573
G1 X45.213 Y190.393 E32.74695
G1 X44.957 Y190.075 E32.76596
G1 X44.542 Y189.2 E32.81106
M204 S2000
G0 F7500 X45.107 Y189.459
M204 S500
G1 F1500 X45.205 Y189.4 E32.81638
G1 X48.766 Y189.4 E32.9822
G1 X48.89 Y189.487 E32.98925
G1 X48.816 Y189.711 E33.00024
G1 X48.635 Y189.968 E33.01487
G1 X48.491 Y190.135 E33.02514
G1 X48.344 Y190.272 E33.0345
G1 X47.886 Y190.511 E33.05855
G1 X47.705 Y190.568 E33.06739
G1 X47.468 Y190.599 E33.07852
G1 X46.425 Y190.598 E33.12709
G1 X45.954 Y190.448 E33.1501
G1 X45.794 Y190.357 E33.15867
G1 X45.497 Y190.108 E33.17672
G1 X45.297 Y189.86 E33.19156
G1 X45.107 Y189.459 E33.21222
M204 S2000
G0 F7500 X45.762 Y189.8
M204 S500
G1 F1500 X48.252 Y189.8 E33.32816
G1 X48.202 Y189.858 E33.33173
G1 X48.11 Y189.944 E33.33759
G1 X47.735 Y190.14 E33.35729
G1 X47.617 Y190.176 E33.36304
G1 X47.445 Y190.199 E33.37112
G1 X46.487 Y190.198 E33.41573
G1 X46.114 Y190.079 E33.43396
G1 X46.021 Y190.026 E33.43894
G1 X45.784 Y189.827 E33.45335
G1 X45.762 Y189.8 E33.45498
M204 S2000
G1 F2400 E32.65498
G0 F7500 X46.486 Y205.001
M204 S500
G1 F2400 E33.45498
G1 F1500 X47.683 Y205.006 E33.51071
G1 X48.379 Y205.267 E33.54533
G1 X48.815 Y205.629 E33.57171
G1 X49.11 Y206.045 E33.59546
G1 X49.281 Y206.408 E33.61414
G1 X49.349 Y206.8 E33.63267
G1 X49.32 Y206.8 E33.63402
G1 X49.201 Y206.839 E33.63985
G1 X49.144 Y206.905 E33.64391
G1 X49.093 Y207 E33.64893
G1 X44.907 Y207 E33.84385
G1 X44.84 Y206.893 E33.84973
G1 X44.744 Y206.814 E33.85552
G1 X44.671 Y206.8 E33.85898
G1 X44.604 Y206.8 E33.8621
G1 X44.902 Y205.999 E33.9019
G1 X45.313 Y205.491 E33.93232
G1 X45.421 Y205.405 E33.93875
G1 X45.988 Y205.106 E33.9686
G1 X46.486 Y205.001 E33.9923
M204 S2000
G0 F7500 X46.525 Y205.401
M204 S500
G1 F1500 X47.608 Y205.406 E34.04273
G1 X48.177 Y205.619 E34.07102
G1 X48.518 Y205.902 E34.09165
G1 X48.764 Y206.249 E34.11146
G1 X48.896 Y206.53 E34.12591
G1 X48.903 Y206.573 E34.12794
G1 X48.882 Y206.6 E34.12954
G1 X45.105 Y206.6 E34.30541
G1 X45.254 Y206.199 E34.32533
G1 X45.596 Y205.777 E34.35062
G1 X45.639 Y205.743 E34.35317
G1 X46.127 Y205.485 E34.37888
G1 X46.525 Y205.401 E34.39782
M204 S2000
G0 F7500 X46.565 Y205.801
M204 S500
G1 F1500 X47.537 Y205.805 E34.44308
G1 X47.972 Y205.969 E34.46473
G1 X48.223 Y206.176 E34.47988
G1 X48.24 Y206.2 E34.48124
G1 X45.768 Y206.2 E34.59635
G1 X45.872 Y206.072 E34.60403
G1 X46.265 Y205.865 E34.62471
G1 X46.565 Y205.801 E34.639
M204 S2000
G1 F2400 E33.839
G0 F7500 X44.893 Y211
M204 S500
G1 F2400 E34.639
G1 F1500 X49.124 Y211 E34.83601
G1 X49.178 Y211.094 E34.84106
G1 X49.271 Y211.178 E34.84689
G1 X49.352 Y211.195 E34.85075
G1 X49.409 Y211.195 E34.8534
G1 X49.107 Y212.005 E34.89366
G1 X48.744 Y212.446 E34.92025
G1 X48.374 Y212.715 E34.94155
G1 X47.92 Y212.915 E34.96465
G1 X47.512 Y212.999 E34.98405
G1 X46.336 Y212.997 E35.03881
G1 X45.618 Y212.728 E35.07451
G1 X45.205 Y212.384 E35.09954
G1 X44.977 Y212.103 E35.11639
G1 X44.696 Y211.526 E35.14627
G1 X44.63 Y211.2 E35.16176
G1 X44.647 Y211.2 E35.16255
G1 X44.81 Y211.116 E35.17109
G1 X44.893 Y211 E35.17773
M204 S2000
G0 F7500 X45.09 Y211.4
M204 S500
G1 F1500 X48.905 Y211.4 E35.35538
G1 X48.755 Y211.803 E35.3754
G1 X48.466 Y212.154 E35.39657
G1 X48.175 Y212.366 E35.41334
G1 X47.799 Y212.532 E35.43247
G1 X47.471 Y212.599 E35.44806
G1 X46.41 Y212.597 E35.49747
G1 X45.82 Y212.375 E35.52682
G1 X45.493 Y212.103 E35.54663
G1 X45.314 Y211.883 E35.55983
G1 X45.083 Y211.408 E35.58443
G1 X45.09 Y211.4 E35.58492
M204 S2000
G0 F7500 X45.762 Y211.8
M204 S500
