;FLAVOR:Marlin
;TIME:42574
;Filament used: 54.0997m
;Layer height: 0.28
;MINX:0
;MINY:0
;MINZ:0.28
;MAXX:220
;MAXY:220
;MAXZ:10.08
;TARGET_MACHINE.NAME:Creality Ender-3 S1
;Generated with Cura_SteamEngine 5.6.0
M82 ;absolute extrusion mode
; Ender 3 S1 Start G-code
; M413 S0 ; Disable power loss recovery
G92 E0 ; Reset Extruder

; Prep surfaces before auto home for better accuracy
M140 S60
M104 S200

G28 ; Home all axes
G1 Z10.0 F3000 ; Move Z Axis up little to prevent scratching of Heat Bed
G1 X0 Y0

M190 S60
M109 S200

G1 X0.1 Y20 Z0.3 F5000.0 ; Move to start position
G1 X0.1 Y200.0 Z0.3 F1500.0 E15 ; Draw the first line
G1 X0.4 Y200.0 Z0.3 F5000.0 ; Move to side a little
G1 X0.4 Y20 Z0.3 F1500.0 E30 ; Draw the second line
G92 E0 ; Reset Extruder
G1 Z2.0 F3000 ; Move Z Axis up little to prevent scratching of Heat Bed
G1 X5 Y20 Z0.3 F5000.0 ; Move over to prevent blob squish

G92 E0
G92 E0
G1 F2400 E-0.8
;LAYER_COUNT:36
;LAYER:0
M107
M204 S2000
G0 F7500 X8.492 Y0.00 Z0.28
M204 S500
;TYPE:SKIRT
G1 F2400 E0
G1 F1500 X7.711 Y0.39 E0.04065
G1 X6.852 Y0.92 E0.08765
G1 X6.099 Y1.482 E0.1314
G1 X5.372 Y2.13 E0.17675
G1 X4.682 Y2.866 E0.22372
G1 X4.103 Y3.605 E0.26744
G1 X3.553 Y4.452 E0.31446
G1 X3.114 Y5.282 E0.35819
G1 X2.735 Y6.177 E0.40344
G1 X2.436 Y7.105 E0.44884
G1 X2.208 Y8.124 E0.49746
G1 X2.089 Y9.019 E0.53951
G1 X1.881 Y11.409 E0.65122
G1 X1.598 Y13.905 E0.76818
G1 X1.245 Y16.381 E0.88464
G1 X0.82 Y18.864 E1.00194
G1 X0.33 Y21.298 E1.11755
G1 X0.00 Y22.735 E1.18621
M204 S2000
G1 F2400 E0.38621
G0 F7500 X9.565 Y0.00
M204 S500
G1 F2400 E1.18621
G1 F1500 X8.729 Y0.329 E1.22804
G1 X7.89 Y0.748 E1.27171
G1 X7.091 Y1.241 E1.31543
G1 X6.338 Y1.803 E1.35918
G1 X5.638 Y2.428 E1.40288
G1 X4.997 Y3.113 E1.44656
G1 X4.418 Y3.852 E1.49027
G1 X3.907 Y4.639 E1.53397
G1 X3.468 Y5.469 E1.57769
G1 X3.103 Y6.333 E1.62136
G1 X2.817 Y7.227 E1.66507
G1 X2.605 Y8.177 E1.71039
G1 X2.486 Y9.072 E1.75244
G1 X2.28 Y11.444 E1.8633
G1 X1.994 Y13.962 E1.9813
G1 X1.639 Y16.449 E2.09828
G1 X1.212 Y18.943 E2.2161
G1 X0.72 Y21.388 E2.33224
G1 X0.149 Y23.873 E2.45096
G1 X0.00 Y24.445 E2.47849
M204 S2000
G1 F2400 E1.67849
G0 F7500 X11.135 Y0.00
M204 S500
G1 F2400 E2.47849
G1 F1500 X10.581 Y0.112 E2.50481
G1 X9.715 Y0.369 E2.54687
G1 X8.876 Y0.701 E2.58888
G1 X8.069 Y1.106 E2.63093
G1 X7.301 Y1.581 E2.67298
G1 X6.578 Y2.123 E2.71505
G1 X5.905 Y2.726 E2.75713
G1 X5.289 Y3.386 E2.79917
G1 X4.733 Y4.098 E2.84123
G1 X4.243 Y4.856 E2.88326
G1 X3.822 Y5.655 E2.92531
G1 X3.472 Y6.488 E2.96739
G1 X3.198 Y7.348 E3.00941
G1 X3.002 Y8.23 E3.05149
G1 X2.883 Y9.125 E3.09353
G1 X2.677 Y11.489 E3.20402
G1 X2.39 Y14.019 E3.32258
G1 X2.033 Y16.517 E3.44008
G1 X1.604 Y19.022 E3.55843
G1 X1.11 Y21.478 E3.67508
G1 X0.536 Y23.974 E3.79434
G1 X0.00 Y26.03 E3.89327
M204 S2000
G1 F2400 E3.09327
G0 F7500 X0.00 Y73.028
M204 S500
G1 F2400 E3.89327
G1 F1500 X0.056 Y75.037 E3.98686
G1 X0.054 Y77.547 E4.10373
G1 X0.00 Y79.422 E4.19108
M204 S2000
G1 F2400 E3.39108
G0 F7500 X0.00 Y67.185
M204 S500
G1 F2400 E4.19108
G1 F1500 X0.033 Y67.476 E4.20471
G1 X0.245 Y70.009 E4.32307
G1 X0.386 Y72.515 E4.43995
G1 X0.456 Y75.037 E4.55743
G1 X0.454 Y77.559 E4.67486
G1 X0.38 Y80.128 E4.79453
G1 X0.239 Y82.597 E4.90969
G1 X0.00 Y85.319 E5.03692
M204 S2000
G1 F2400 E4.23692
G0 F7500 X0.00 Y63.885
M204 S500
G1 F2400 E5.03692
G1 F1500 X0.143 Y64.896 E5.08447
G1 X0.431 Y67.442 E5.20378
G1 X0.644 Y69.975 E5.32214
G1 X0.786 Y72.504 E5.44009
G1 X0.856 Y75.037 E5.55808
G1 X0.854 Y77.571 E5.67607
G1 X0.78 Y80.14 E5.79575
G1 X0.637 Y82.631 E5.91193
G1 X0.416 Y85.204 E6.03218
G1 X0.127 Y87.729 E6.15052
G1 X0.00 Y88.618 E6.19234
M204 S2000
G1 F2400 E5.39234
G0 F7500 X0.00 Y140.528
M204 S500
G1 F2400 E6.19234
G1 F1500 X0.056 Y142.537 E6.28592
G1 X0.054 Y145.047 E6.4028
G1 X0.00 Y146.922 E6.49014
M204 S2000
G1 F2400 E5.69014
G0 F7500 X0.00 Y134.685
M204 S500
G1 F2400 E6.49014
G1 F1500 X0.033 Y134.976 E6.50378
G1 X0.245 Y137.509 E6.62214
G1 X0.386 Y140.015 E6.73901
G1 X0.456 Y142.537 E6.85649
G1 X0.454 Y145.059 E6.97393
G1 X0.38 Y147.628 E7.0936
G1 X0.239 Y150.097 E7.20875
G1 X0.00 Y152.819 E7.33599
M204 S2000
G1 F2400 E6.53599
G0 F7500 X0.00 Y131.385
M204 S500
G1 F2400 E7.33599
G1 F1500 X0.143 Y132.396 E7.38353
G1 X0.431 Y134.942 E7.50284
G1 X0.644 Y137.475 E7.62121
G1 X0.786 Y140.004 E7.73915
G1 X0.856 Y142.537 E7.85714
G1 X0.854 Y145.071 E7.97514
G1 X0.78 Y147.64 E8.09481
G1 X0.637 Y150.131 E8.21099
G1 X0.416 Y152.704 E8.33124
G1 X0.127 Y155.229 E8.44959
G1 X0.00 Y156.118 E8.4914
M204 S2000
G1 F2400 E7.6914
G0 F7500 X0.00 Y197.264
M204 S500
G1 F2400 E8.4914
G1 F1500 X0.555 Y199.813 E8.61288
G1 X1.012 Y202.258 E8.7287
G1 X1.41 Y204.773 E8.84726
G1 X1.73 Y207.248 E8.96347
G1 X1.998 Y209.917 E9.08837
G1 X2.085 Y210.933 E9.13586
G1 X2.154 Y211.526 E9.16365
G1 X2.323 Y212.441 E9.20698
G1 X2.592 Y213.413 E9.25394
G1 X2.921 Y214.291 E9.2976
G1 X3.375 Y215.233 E9.34629
G1 X3.837 Y216.009 E9.38835
G1 X4.407 Y216.799 E9.43371
G1 X5.043 Y217.536 E9.47904
G1 X5.741 Y218.214 E9.52435
G1 X6.556 Y218.872 E9.57312
G1 X7.307 Y219.374 E9.61519
G1 X8.19 Y219.861 E9.66214
G1 X8.508 Y220 E9.6783
M204 S2000
G1 F2400 E8.8783
G0 F7500 X0.00 Y195.592
M204 S500
G1 F2400 E9.6783
G1 F1500 X0.417 Y197.285 E9.75949
G1 X0.946 Y199.728 E9.87588
G1 X1.407 Y202.195 E9.99275
G1 X1.807 Y204.722 E10.11188
G1 X2.128 Y207.208 E10.2286
G1 X2.397 Y209.883 E10.35379
G1 X2.484 Y210.899 E10.40127
G1 X2.551 Y211.48 E10.4285
G1 X2.716 Y212.368 E10.47056
G1 X2.967 Y213.273 E10.51429
G1 X3.296 Y214.151 E10.55795
G1 X3.719 Y215.028 E10.60329
G1 X4.181 Y215.804 E10.64534
G1 X4.731 Y216.565 E10.68906
G1 X5.345 Y217.274 E10.73273
G1 X6.019 Y217.927 E10.77643
G1 X6.778 Y218.539 E10.82183
G1 X7.529 Y219.041 E10.8639
G1 X8.35 Y219.494 E10.90756
G1 X9.242 Y219.884 E10.95289
G1 X9.587 Y220 E10.96984
M204 S2000
G1 F2400 E10.16984
G0 F7500 X0.00 Y194.007
M204 S500
G1 F2400 E10.96984
G1 F1500 X0.199 Y194.726 E11.00458
G1 X0.807 Y197.2 E11.1232
G1 X1.337 Y199.643 E11.23961
G1 X1.802 Y202.132 E11.35751
G1 X2.204 Y204.671 E11.47721
G1 X2.526 Y207.168 E11.59444
G1 X2.796 Y209.849 E11.71991
G1 X2.883 Y210.865 E11.7674
G1 X2.944 Y211.407 E11.79279
G1 X3.109 Y212.295 E11.83485
G1 X3.352 Y213.165 E11.87691
G1 X3.67 Y214.01 E11.91895
G1 X4.063 Y214.823 E11.961
G1 X4.525 Y215.599 E12.00305
G1 X5.055 Y216.33 E12.0451
G1 X5.647 Y217.012 E12.08715
G1 X6.297 Y217.639 E12.1292
G1 X7 Y218.206 E12.17126
G1 X7.751 Y218.708 E12.21332
G1 X8.543 Y219.143 E12.25539
G1 X9.37 Y219.505 E12.29743
G1 X10.226 Y219.793 E12.33948
G1 X11.087 Y220 E12.38072
M204 S2000
G1 F2400 E11.58072
G0 F7500 X197.216 Y220
M204 S500
G1 F2400 E12.38072
G1 F1500 X197.954 Y219.637 E12.41901
G1 X198.787 Y219.132 E12.46437
G1 X199.571 Y218.556 E12.50967
G1 X200.329 Y217.887 E12.55675
G1 X200.936 Y217.297 E12.59617
G1 X220 Y198.229 E13.8517
M204 S2000
G1 F2400 E13.0517
G0 F7500 X196.146 Y220
M204 S500
G1 F2400 E13.8517
G1 F1500 X196.935 Y219.694 E13.8911
G1 X197.777 Y219.278 E13.93483
G1 X198.579 Y218.79 E13.97855
G1 X199.334 Y218.234 E14.02221
G1 X200.05 Y217.6 E14.06674
G1 X200.657 Y217.01 E14.10615
G1 X220 Y197.663 E15.38006
M204 S2000
G1 F2400 E14.58006
G0 F7500 X194.577 Y220
M204 S500
G1 F2400 E15.38006
G1 F1500 X195.081 Y219.901 E15.40397
G1 X195.949 Y219.649 E15.44606
G1 X196.79 Y219.321 E15.48809
G1 X197.599 Y218.92 E15.53014
G1 X198.37 Y218.449 E15.57221
G1 X199.096 Y217.912 E15.61426
G1 X199.771 Y217.313 E15.65628
G1 X200.378 Y216.723 E15.69569
G1 X220 Y197.097 E16.98797
M204 S2000
G1 F2400 E16.18797
G0 F7500 X220 Y21.768
M204 S500
G1 F2400 E16.98797
G1 F1500 X200.765 Y2.532 E18.25466
G1 X200.24 Y2.028 E18.28855
G1 X199.229 Y1.18 E18.34999
G1 X198.411 Y0.627 E18.39597
G1 X197.558 Y0.156 E18.44134
G1 X197.205 Y0.00 E18.45931
M204 S2000
G0 F7500 X196.126 Y0.00
M204 S500
G1 F1500 X196.505 Y0.128 E18.47794
G1 X197.365 Y0.506 E18.52168
G1 X198.188 Y0.959 E18.56542
G1 X198.972 Y1.487 E18.60944
G1 X199.963 Y2.317 E18.66963
G1 X200.482 Y2.815 E18.70312
G1 X220 Y22.333 E19.98841
M204 S2000
G1 F2400 E19.18841
G0 F7500 X194.628 Y0.00
M204 S500
G1 F2400 E19.98841
G1 F1500 X195.489 Y0.207 E20.02965
G1 X196.345 Y0.495 E20.0717
G1 X197.173 Y0.857 E20.11378
G1 X197.965 Y1.291 E20.15584
G1 X198.715 Y1.794 E20.19789
G1 X199.706 Y2.624 E20.25808
G1 X200.199 Y3.098 E20.28992
G1 X219.683 Y22.581 E21.57294
G1 X220 Y22.907 E21.59412
M204 S2000
G1 F2400 E20.79412
G0 F7500 X15.951 Y13
M204 S500
G1 F2400 E21.59412
G1 F1500 X78.951 Y13 E24.52766
G1 X78.951 Y31 E25.36582
G1 X15.951 Y31 E28.29936
G1 X15.951 Y13 E29.13752
M204 S2000
G0 F7500 X16.351 Y13.4
M204 S500
G1 F1500 X78.551 Y13.4 E32.03381
G1 X78.551 Y30.6 E32.83471
G1 X16.351 Y30.6 E35.73101
G1 X16.351 Y13.4 E36.53191
M204 S2000
G0 F7500 X16.751 Y13.8
M204 S500
G1 F1500 X78.151 Y13.8 E39.39095
G1 X78.151 Y30.2 E40.1546
G1 X16.751 Y30.2 E43.01364
G1 X16.751 Y13.8 E43.7773
M204 S2000
G0 F7500 X17.151 Y14.2
M204 S500
G1 F1500 X77.751 Y14.2 E46.59909
G1 X77.751 Y29.8 E47.32549
G1 X17.151 Y29.8 E50.14728
G1 X17.151 Y14.2 E50.87368
M204 S2000
G0 F7500 X17.551 Y14.6
M204 S500
G1 F1500 X77.351 Y14.6 E53.65822
G1 X77.351 Y29.4 E54.34737
G1 X17.551 Y29.4 E57.13191
G1 X17.551 Y14.6 E57.82106
M204 S2000
G0 F7500 X17.951 Y15
M204 S500
G1 F1500 X76.951 Y15 E60.56834
G1 X76.951 Y29 E61.22024
G1 X17.951 Y29 E63.96753
G1 X17.951 Y15 E64.61943
M204 S2000
G0 F7500 X18.351 Y15.4
M204 S500
G1 F1500 X76.551 Y15.4 E67.32946
G1 X76.551 Y28.6 E67.94411
G1 X18.351 Y28.6 E70.65415
G1 X18.351 Y15.4 E71.26879
M204 S2000
G0 F7500 X18.751 Y15.8
M204 S500
G1 F1500 X76.151 Y15.8 E73.94158
G1 X76.151 Y28.2 E74.51898
G1 X18.751 Y28.2 E77.19176
G1 X18.751 Y15.8 E77.76916
M204 S2000
G0 F7500 X19.151 Y16.2
M204 S500
G1 F1500 X75.751 Y16.2 E80.40469
G1 X75.751 Y27.8 E80.94483
G1 X19.151 Y27.8 E83.58037
G1 X19.151 Y16.2 E84.12051
M204 S2000
G0 F7500 X19.551 Y16.6
M204 S500
G1 F1500 X75.351 Y16.6 E86.71879
G1 X75.351 Y27.4 E87.22169
G1 X19.551 Y27.4 E89.81997
G1 X19.551 Y16.6 E90.32286
M204 S2000
G1 F2400 E89.52286
G0 F7500 X11.836 Y40.2
M204 S500
G1 F2400 E90.32286
G1 F1500 X11.875 Y40.319 E90.32869
G1 X12.036 Y40.4 E90.33708
G1 X12.036 Y44.6 E90.53265
G1 X11.917 Y44.639 E90.53848
G1 X11.836 Y44.8 E90.54688
G1 X6.248 Y44.8 E90.80708
G1 X6.248 Y40.201 E91.02123
G1 X11.836 Y40.2 E91.28143
M204 S2000
G0 F7500 X11.588 Y40.6
M204 S500
G1 F1500 X11.636 Y40.637 E91.28425
G1 X11.636 Y44.352 E91.45724
G1 X11.599 Y44.4 E91.46006
G1 X6.648 Y44.4 E91.6906
G1 X6.648 Y40.601 E91.86749
G1 X11.588 Y40.6 E92.09752
M204 S2000
G0 F7500 X11.236 Y41
M204 S500
G1 F1500 X11.236 Y44 E92.23721
G1 X7.048 Y44 E92.43222
G1 X7.048 Y41.001 E92.57187
G1 X11.236 Y41 E92.76688
M204 S2000
G0 F7500 X10.836 Y41.4
M204 S500
G1 F1500 X10.836 Y43.6 E92.86932
G1 X7.448 Y43.6 E93.02708
G1 X7.448 Y41.401 E93.12948
G1 X10.836 Y41.4 E93.28724
M204 S2000
G0 F7500 X10.436 Y41.8
M204 S500
G1 F1500 X10.436 Y43.2 E93.35243
G1 X7.848 Y43.2 E93.47293
G1 X7.848 Y41.801 E93.53808
G1 X10.436 Y41.8 E93.65859
M204 S2000
G0 F7500 X10.036 Y42.2
M204 S500
G1 F1500 X10.036 Y42.8 E93.68652
G1 X8.248 Y42.8 E93.76978
G1 X8.248 Y42.201 E93.79767
G1 X10.036 Y42.2 E93.88093
M204 S2000
G1 F2400 E93.08093
G0 F7500 X11.836 Y107.7
M204 S500
G1 F2400 E93.88093
G1 F1500 X11.875 Y107.819 E93.88676
G1 X12.036 Y107.9 E93.89515
G1 X12.036 Y112.1 E94.09072
G1 X11.917 Y112.139 E94.09655
G1 X11.836 Y112.3 E94.10495
G1 X6.248 Y112.3 E94.36515
G1 X6.248 Y107.701 E94.57929
G1 X11.836 Y107.7 E94.8395
M204 S2000
G0 F7500 X11.588 Y108.1
M204 S500
G1 F1500 X11.636 Y108.137 E94.84232
G1 X11.636 Y111.852 E95.0153
G1 X11.599 Y111.9 E95.01813
G1 X6.648 Y111.9 E95.24866
G1 X6.648 Y108.101 E95.42556
G1 X11.588 Y108.1 E95.65559
M204 S2000
G0 F7500 X11.236 Y108.5
M204 S500
G1 F1500 X11.236 Y111.5 E95.79528
G1 X7.048 Y111.5 E95.99029
G1 X7.048 Y108.501 E96.12994
G1 X11.236 Y108.5 E96.32495
M204 S2000
G0 F7500 X10.836 Y108.9
M204 S500
G1 F1500 X10.836 Y111.1 E96.42739
G1 X7.448 Y111.1 E96.58515
G1 X7.448 Y108.901 E96.68754
G1 X10.836 Y108.9 E96.8453
M204 S2000
G0 F7500 X10.436 Y109.3
M204 S500
G1 F1500 X10.436 Y110.7 E96.91049
G1 X7.848 Y110.7 E97.031
G1 X7.848 Y109.301 E97.09615
G1 X10.436 Y109.3 E97.21665
M204 S2000
G0 F7500 X10.036 Y109.7
M204 S500
G1 F1500 X10.036 Y110.3 E97.24459
G1 X8.248 Y110.3 E97.32785
G1 X8.248 Y109.701 E97.35574
G1 X10.036 Y109.7 E97.439
M204 S2000
G1 F2400 E96.639
G0 F7500 X11.836 Y175.2
M204 S500
G1 F2400 E97.439
G1 F1500 X11.875 Y175.319 E97.44483
G1 X12.036 Y175.4 E97.45322
G1 X12.036 Y179.599 E97.64874
G1 X11.917 Y179.638 E97.65458
G1 X11.836 Y179.799 E97.66297
G1 X6.248 Y179.8 E97.92317
G1 X6.248 Y175.201 E98.13732
G1 X11.836 Y175.2 E98.39752
M204 S2000
G0 F7500 X11.588 Y175.6
M204 S500
G1 F1500 X11.636 Y175.637 E98.40034
G1 X11.636 Y179.351 E98.57328
G1 X11.599 Y179.399 E98.5761
G1 X6.648 Y179.4 E98.80664
G1 X6.648 Y175.601 E98.98354
G1 X11.588 Y175.6 E99.21356
M204 S2000
G0 F7500 X11.236 Y176
M204 S500
G1 F1500 X11.236 Y178.999 E99.35321
G1 X7.048 Y179 E99.54822
G1 X7.048 Y176.001 E99.68787
G1 X11.236 Y176 E99.88288
M204 S2000
G0 F7500 X10.836 Y176.4
M204 S500
G1 F1500 X10.836 Y178.599 E99.98527
G1 X7.448 Y178.6 E100.14303
G1 X7.448 Y176.401 E100.24543
G1 X10.836 Y176.4 E100.40319
M204 S2000
G0 F7500 X10.436 Y176.8
M204 S500
G1 F1500 X10.436 Y178.199 E100.46833
G1 X7.848 Y178.2 E100.58884
G1 X7.848 Y176.801 E100.65398
G1 X10.436 Y176.8 E100.77449
M204 S2000
G0 F7500 X10.036 Y177.2
M204 S500
G1 F1500 X10.036 Y177.799 E100.80238
G1 X8.248 Y177.8 E100.88564
G1 X8.248 Y177.201 E100.91353
G1 X10.036 Y177.2 E100.99679
M204 S2000
G1 F2400 E100.19679
G0 F7500 X15.951 Y189
M204 S500
G1 F2400 E100.99679
G1 F1500 X78.951 Y189 E103.93033
G1 X78.951 Y207 E104.76849
G1 X15.951 Y207 E107.70203
G1 X15.951 Y189 E108.54019
M204 S2000
G0 F7500 X16.351 Y189.4
M204 S500
G1 F1500 X78.551 Y189.4 E111.43648
G1 X78.551 Y206.6 E112.23738
G1 X16.351 Y206.6 E115.13367
G1 X16.351 Y189.4 E115.93458
M204 S2000
G0 F7500 X16.751 Y189.8
M204 S500
G1 F1500 X78.151 Y189.8 E118.79362
G1 X78.151 Y206.2 E119.55727
G1 X16.751 Y206.2 E122.41631
G1 X16.751 Y189.8 E123.17997
M204 S2000
G0 F7500 X17.151 Y190.2
M204 S500
G1 F1500 X77.751 Y190.2 E126.00176
G1 X77.751 Y205.8 E126.72816
G1 X17.151 Y205.8 E129.54995
G1 X17.151 Y190.2 E130.27635
M204 S2000
G0 F7500 X17.551 Y190.6
M204 S500
G1 F1500 X77.351 Y190.6 E133.06089
G1 X77.351 Y205.4 E133.75004
G1 X17.551 Y205.4 E136.53458
G1 X17.551 Y190.6 E137.22373
M204 S2000
G0 F7500 X17.951 Y191
M204 S500
G1 F1500 X76.951 Y191 E139.97101
G1 X76.951 Y205 E140.62291
G1 X17.951 Y205 E143.3702
G1 X17.951 Y191 E144.0221
M204 S2000
G0 F7500 X18.351 Y191.4
M204 S500
G1 F1500 X76.551 Y191.4 E146.73213
G1 X76.551 Y204.6 E147.34678
G1 X18.351 Y204.6 E150.05682
G1 X18.351 Y191.4 E150.67146
M204 S2000
G0 F7500 X18.751 Y191.8
M204 S500
G1 F1500 X76.151 Y191.8 E153.34425
G1 X76.151 Y204.2 E153.92164
G1 X18.751 Y204.2 E156.59443
G1 X18.751 Y191.8 E157.17182
M204 S2000
G0 F7500 X19.151 Y192.2
M204 S500
G1 F1500 X75.751 Y192.2 E159.80736
G1 X75.751 Y203.8 E160.3475
G1 X19.151 Y203.8 E162.98304
G1 X19.151 Y192.2 E163.52318
M204 S2000
G0 F7500 X19.551 Y192.6
M204 S500
G1 F1500 X75.351 Y192.6 E166.12146
G1 X75.351 Y203.4 E166.62436
G1 X19.551 Y203.4 E169.22264
G1 X19.551 Y192.6 E169.72553
M204 S2000
G1 F2400 E168.92553
G0 F7500 X91.729 Y211.199
M204 S500
G1 F2400 E169.72553
G1 F1500 X91.92 Y211.199 E169.73442
G1 X92.029 Y211.167 E169.73971
G1 X92.285 Y211 E169.75395
G1 X96.28 Y211 E169.93997
G1 X96.508 Y211.163 E169.95302
G1 X96.624 Y211.2 E169.95869
G1 X96.806 Y211.2 E169.96717
G1 X96.463 Y212.044 E170.00959
G1 X96.185 Y212.387 E170.03015
G1 X95.955 Y212.602 E170.04481
G1 X95.359 Y212.917 E170.0762
G1 X94.891 Y213 E170.09833
G1 X93.514 Y212.996 E170.16245
G1 X92.918 Y212.799 E170.19168
G1 X92.725 Y212.66 E170.20275
G1 X92.345 Y212.349 E170.22562
G1 X92.153 Y212.094 E170.24048
G1 X91.729 Y211.199 E170.28659
M204 S2000
G0 F7500 X92.299 Y211.469
M204 S500
G1 F1500 X92.404 Y211.4 E170.29244
G1 X96.152 Y211.4 E170.46697
G1 X96.261 Y211.478 E170.47321
G1 X96.115 Y211.839 E170.49134
G1 X95.889 Y212.117 E170.50802
G1 X95.72 Y212.275 E170.5188
G1 X95.229 Y212.534 E170.54465
