;FLAVOR:Marlin
;TIME:7008
;Filament used: 4.11131m
;Layer height: 0.16
;MINX:20.709
;MINY:77.36
;MINZ:0.2
;MAXX:199.291
;MAXY:141.354
;MAXZ:23.88
;TARGET_MACHINE.NAME:Creality Ender-3 S1
;Generated with Cura_SteamEngine 5.6.0
M82 ;absolute extrusion mode
; Ender 3 S1 Start G-code
; M413 S0 ; Disable power loss recovery
G92 E0 ; Reset Extruder

; Prep surfaces before auto home for better accuracy
M140 S60
M104 S200

G28 ; Home all axes
G1 Z10.0 F3000 ; Move Z Axis up little to prevent scratching of Heat Bed
G1 X0 Y0

M190 S60
M109 S200

G1 X0.1 Y20 Z0.3 F5000.0 ; Move to start position
G1 X0.1 Y200.0 Z0.3 F1500.0 E15 ; Draw the first line
G1 X0.4 Y200.0 Z0.3 F5000.0 ; Move to side a little
G1 X0.4 Y20 Z0.3 F1500.0 E30 ; Draw the second line
G92 E0 ; Reset Extruder
G1 Z2.0 F3000 ; Move Z Axis up little to prevent scratching of Heat Bed
G1 X5 Y20 Z0.3 F5000.0 ; Move over to prevent blob squish

G92 E0
G92 E0
G1 F2400 E-0.8
;LAYER_COUNT:138
;LAYER:0
M107
M204 S2000
G0 F7500 X42.302 Y102.622 Z0.2
M204 S500
;TYPE:SKIRT
G1 F2400 E0
G1 F1500 X43.334 Y102.253 E0.03645
G1 X46.217 Y101.32 E0.13724
G1 X58.407 Y97.165 E0.56558
G1 X59.181 Y96.912 E0.59267
G1 X59.766 Y96.74 E0.61295
G1 X60.695 Y96.495 E0.6449
G1 X63.323 Y95.761 E0.73566
G1 X66.719 Y94.759 E0.85342
G1 X69.184 Y93.996 E0.93925
G1 X71.562 Y93.181 E1.02285
G1 X73.933 Y92.295 E1.10704
G1 X76.275 Y91.344 E1.19111
G1 X78.524 Y90.353 E1.27285
G1 X80.851 Y89.253 E1.35846
G1 X83.055 Y88.131 E1.44072
G1 X85.268 Y86.924 E1.52456
G1 X87.456 Y85.649 E1.60879
G1 X90.353 Y83.832 E1.72253
G1 X91.226 Y83.261 E1.75722
G1 X92.157 Y82.696 E1.79344
G1 X92.816 Y82.332 E1.81848
G1 X93.447 Y82.013 E1.842
G1 X94.042 Y81.735 E1.86384
G1 X94.478 Y81.548 E1.87962
G1 X95.683 Y81.114 E1.92222
G1 X96.866 Y80.766 E1.96324
G1 X99.352 Y79.995 E2.0498
G1 X101.735 Y79.182 E2.13355
G1 X104.425 Y78.182 E2.229
G1 X105.35 Y77.88 E2.26137
G1 X106.23 Y77.675 E2.29142
G1 X106.928 Y77.566 E2.31491
G1 X107.751 Y77.465 E2.34249
G1 X108.897 Y77.386 E2.3807
G1 X110.64 Y77.36 E2.43868
G1 X111.612 Y77.392 E2.47103
G1 X112.569 Y77.506 E2.50308
G1 X113.177 Y77.625 E2.52369
G1 X113.927 Y77.803 E2.54932
G1 X114.588 Y77.979 E2.57207
G1 X115.473 Y78.259 E2.60295
G1 X116.653 Y78.685 E2.64467
G1 X119.146 Y79.548 E2.73242
G1 X121.491 Y80.289 E2.81422
G1 X122.603 Y80.599 E2.85261
G1 X122.798 Y80.663 E2.85944
G1 X124.054 Y81.024 E2.9029
G1 X124.638 Y81.212 E2.92331
G1 X125.395 Y81.491 E2.95014
G1 X125.977 Y81.727 E2.97103
G1 X126.798 Y82.103 E3.00107
G1 X127.32 Y82.387 E3.02083
G1 X127.791 Y82.659 E3.03892
G1 X128.537 Y83.116 E3.06802
G1 X129.272 Y83.597 E3.09723
G1 X131.531 Y85.041 E3.18641
G1 X133.651 Y86.313 E3.26864
G1 X135.883 Y87.568 E3.3538
G1 X138.101 Y88.735 E3.43716
G1 X140.345 Y89.834 E3.52027
G1 X142.622 Y90.871 E3.60349
G1 X144.98 Y91.865 E3.6886
G1 X147.335 Y92.78 E3.77263
G1 X149.671 Y93.613 E3.85512
G1 X153.271 Y94.756 E3.98074
G1 X156.526 Y95.718 E4.09363
G1 X159.161 Y96.456 E4.18465
G1 X160.316 Y96.763 E4.2244
G1 X160.908 Y96.939 E4.24494
G1 X161.681 Y97.192 E4.27199
G1 X173.618 Y101.262 E4.69146
G1 X175.297 Y101.795 E4.75005
G1 X175.539 Y101.884 E4.75863
G1 X176.84 Y102.314 E4.8042
G1 X178.007 Y102.739 E4.84551
G1 X190.743 Y107.617 E5.29912
G1 X192.19 Y108.16 E5.35052
G1 X193.053 Y108.529 E5.38174
G1 X193.911 Y108.989 E5.41412
G1 X194.755 Y109.545 E5.44773
G1 X195.516 Y110.152 E5.48011
G1 X196.221 Y110.823 E5.51248
G1 X196.865 Y111.555 E5.54491
G1 X197.441 Y112.34 E5.57729
G1 X197.928 Y113.142 E5.6085
G1 X198.373 Y114.048 E5.64207
G1 X198.722 Y114.957 E5.67446
G1 X198.991 Y115.893 E5.70685
G1 X199.174 Y116.85 E5.73926
G1 X199.272 Y117.808 E5.77129
G1 X199.291 Y118.483 E5.79374
G1 X199.29 Y118.803 E5.80439
G1 X199.247 Y119.705 E5.83442
G1 X199.104 Y120.741 E5.86921
G1 X198.893 Y121.656 E5.90044
G1 X198.58 Y122.614 E5.93396
G1 X198.212 Y123.478 E5.96519
G1 X197.734 Y124.367 E5.99877
G1 X197.199 Y125.181 E6.03116
G1 X196.594 Y125.944 E6.06355
G1 X195.974 Y126.601 E6.0936
G1 X195.191 Y127.294 E6.12837
G1 X194.407 Y127.87 E6.16073
G1 X193.606 Y128.358 E6.19193
G1 X192.7 Y128.806 E6.22554
G1 X191.792 Y129.155 E6.2579
G1 X190.84 Y129.428 E6.29084
G1 X189.487 Y129.665 E6.33652
G1 X187.881 Y129.841 E6.39026
G1 X185.312 Y130.171 E6.47641
G1 X182.841 Y130.561 E6.55961
G1 X180.416 Y131.014 E6.64166
G1 X177.91 Y131.555 E6.72693
G1 X175.521 Y132.145 E6.80878
G1 X173.014 Y132.835 E6.89526
G1 X170.669 Y133.556 E6.97686
G1 X168.235 Y134.381 E7.06234
G1 X165.906 Y135.242 E7.14492
G1 X163.581 Y136.179 E7.2283
G1 X161.268 Y137.187 E7.31222
G1 X158.975 Y138.264 E7.39648
G1 X156.707 Y139.425 E7.48122
G1 X156.473 Y139.532 E7.48978
G1 X155.516 Y140.029 E7.52564
G1 X154.697 Y140.41 E7.55569
G1 X153.765 Y140.749 E7.58867
G1 X153.481 Y140.837 E7.59856
G1 X152.534 Y141.084 E7.63111
G1 X151.36 Y141.276 E7.67068
G1 X150.172 Y141.354 E7.71028
G1 X149.182 Y141.326 E7.74322
G1 X148.278 Y141.247 E7.7734
G1 X146.669 Y141.052 E7.82731
G1 X144.163 Y140.8 E7.91108
G1 X141.649 Y140.616 E7.99492
G1 X139.133 Y140.506 E8.07868
G1 X136.592 Y140.465 E8.1632
G1 X134.124 Y140.497 E8.2453
G1 X131.558 Y140.601 E8.33071
G1 X129.058 Y140.774 E8.41406
G1 X126.544 Y141.019 E8.49807
G1 X125.283 Y141.178 E8.54035
G1 X124.217 Y141.293 E8.57601
G1 X123.242 Y141.354 E8.6085
G1 X122.254 Y141.326 E8.64137
G1 X121.336 Y141.245 E8.67202
G1 X119.521 Y141.023 E8.73284
G1 X116.932 Y140.765 E8.81938
G1 X114.481 Y140.59 E8.90111
G1 X111.905 Y140.479 E8.98686
G1 X109.412 Y140.442 E9.06979
G1 X106.905 Y140.477 E9.15318
G1 X104.386 Y140.582 E9.23704
G1 X101.868 Y140.76 E9.321
G1 X99.35 Y141.008 E9.40515
G1 X97.845 Y141.198 E9.4556
G1 X96.949 Y141.294 E9.48558
G1 X95.975 Y141.354 E9.51803
G1 X94.987 Y141.327 E9.55091
G1 X94.164 Y141.255 E9.57838
G1 X93.066 Y141.129 E9.61514
G1 X90.502 Y140.87 E9.70086
G1 X87.994 Y140.688 E9.78449
G1 X85.461 Y140.576 E9.86882
G1 X82.927 Y140.535 E9.95311
G1 X80.464 Y140.566 E10.03504
G1 X77.898 Y140.67 E10.12046
G1 X75.398 Y140.843 E10.2038
G1 X72.819 Y141.095 E10.28999
G1 X71.079 Y141.29 E10.34823
G1 X70.103 Y141.353 E10.38076
G1 X69.021 Y141.323 E10.41676
G1 X68.654 Y141.293 E10.429
G1 X67.676 Y141.168 E10.4618
G1 X66.322 Y140.852 E10.50804
G1 X65.241 Y140.477 E10.5461
G1 X64.719 Y140.253 E10.56499
G1 X62.621 Y139.289 E10.64178
G1 X60.256 Y138.276 E10.72736
G1 X57.968 Y137.372 E10.80918
G1 X55.548 Y136.493 E10.89481
G1 X53.059 Y135.661 E10.9821
G1 X52.595 Y135.493 E10.99851
G1 X49.829 Y134.423 E11.09716
G1 X47.453 Y133.585 E11.18095
G1 X45.044 Y132.811 E11.26511
G1 X42.634 Y132.11 E11.34859
G1 X40.225 Y131.485 E11.43137
G1 X37.716 Y130.909 E11.51699
G1 X35.263 Y130.417 E11.6002
G1 X32.82 Y129.998 E11.68264
G1 X30.122 Y129.613 E11.77328
G1 X29.166 Y129.43 E11.80566
G1 X28.229 Y129.164 E11.83805
G1 X27.319 Y128.815 E11.87047
G1 X26.476 Y128.404 E11.90166
G1 X25.611 Y127.883 E11.93525
G1 X24.826 Y127.308 E11.96761
G1 X24.093 Y126.665 E12.00004
G1 X23.422 Y125.961 E12.03239
G1 X22.814 Y125.2 E12.06479
G1 X22.313 Y124.449 E12.09482
G1 X21.813 Y123.532 E12.12955
G1 X21.452 Y122.704 E12.1596
G1 X21.122 Y121.712 E12.19437
G1 X20.899 Y120.764 E12.22676
G1 X20.761 Y119.795 E12.25931
G1 X20.709 Y118.733 E12.29468
G1 X20.71 Y118.372 E12.30669
G1 X20.753 Y117.47 E12.33672
G1 X20.896 Y116.434 E12.3715
G1 X21.107 Y115.519 E12.40274
G1 X21.42 Y114.561 E12.43626
G1 X21.788 Y113.697 E12.46749
G1 X22.266 Y112.808 E12.50106
G1 X22.802 Y111.993 E12.53351
G1 X23.407 Y111.232 E12.56584
G1 X24.078 Y110.525 E12.59826
G1 X24.781 Y109.903 E12.62948
G1 X25.593 Y109.306 E12.663
G1 X26.424 Y108.8 E12.69536
G1 X27.284 Y108.375 E12.72727
G1 X27.731 Y108.191 E12.74335
G1 X29.382 Y107.568 E12.80204
G1 X42.302 Y102.622 E13.26217
M204 S2000
G0 F7500 X42.437 Y102.999
M204 S500
G1 F1500 X43.457 Y102.634 E13.2982
G1 X46.34 Y101.701 E13.39899
G1 X58.531 Y97.545 E13.82738
G1 X59.294 Y97.296 E13.85407
G1 X59.868 Y97.127 E13.87397
G1 X60.797 Y96.882 E13.90593
G1 X63.436 Y96.145 E13.99706
G1 X66.832 Y95.143 E14.11483
G1 X69.302 Y94.378 E14.20083
G1 X71.702 Y93.556 E14.2852
G1 X74.073 Y92.67 E14.36939
G1 X76.425 Y91.715 E14.45382
G1 X78.695 Y90.715 E14.53632
G1 X81.022 Y89.614 E14.62194
G1 X83.246 Y88.482 E14.70495
G1 X85.469 Y87.27 E14.78916
G1 X87.669 Y85.988 E14.87385
G1 X90.566 Y84.171 E14.98759
G1 X91.434 Y83.603 E15.02209
G1 X92.35 Y83.046 E15.05774
G1 X92.996 Y82.689 E15.08229
G1 X93.617 Y82.375 E15.10544
G1 X94.2 Y82.102 E15.12685
G1 X94.614 Y81.924 E15.14184
G1 X95.796 Y81.498 E15.18363
G1 X96.979 Y81.15 E15.22464
G1 X99.481 Y80.374 E15.31177
G1 X101.864 Y79.561 E15.39551
G1 X104.549 Y78.562 E15.4908
G1 X105.441 Y78.27 E15.52201
G1 X106.321 Y78.065 E15.55207
G1 X106.977 Y77.963 E15.57415
G1 X107.779 Y77.864 E15.60102
G1 X108.903 Y77.786 E15.6385
G1 X110.628 Y77.76 E15.69588
G1 X111.565 Y77.789 E15.72706
G1 X112.492 Y77.899 E15.75811
G1 X113.1 Y78.018 E15.77871
G1 X113.824 Y78.19 E15.80346
G1 X114.485 Y78.366 E15.82621
G1 X115.337 Y78.635 E15.85593
G1 X116.522 Y79.063 E15.89784
G1 X119.015 Y79.926 E15.98558
G1 X121.373 Y80.671 E16.06783
G1 X122.479 Y80.979 E16.10602
G1 X122.681 Y81.045 E16.11308
G1 X123.931 Y81.405 E16.15635
G1 X124.515 Y81.593 E16.17675
G1 X125.245 Y81.862 E16.20263
G1 X125.81 Y82.091 E16.22291
G1 X126.631 Y82.467 E16.25294
G1 X127.12 Y82.733 E16.27146
G1 X127.582 Y83 E16.2892
G1 X128.318 Y83.451 E16.31791
G1 X129.053 Y83.932 E16.34713
G1 X131.325 Y85.384 E16.43681
G1 X133.455 Y86.662 E16.51943
G1 X135.687 Y87.917 E16.6046
G1 X137.925 Y89.094 E16.6887
G1 X140.179 Y90.198 E16.77218
G1 X142.467 Y91.24 E16.85579
G1 X144.828 Y92.235 E16.94101
G1 X147.192 Y93.154 E17.02537
G1 X149.537 Y93.99 E17.10817
G1 X153.158 Y95.14 E17.23454
G1 X156.413 Y96.102 E17.34743
G1 X159.058 Y96.843 E17.43879
G1 X160.213 Y97.15 E17.47854
G1 X160.783 Y97.319 E17.49831
G1 X161.552 Y97.571 E17.52523
G1 X173.489 Y101.641 E17.94469
G1 X175.159 Y102.171 E18.00297
G1 X175.402 Y102.26 E18.01158
G1 X176.703 Y102.69 E18.05715
G1 X177.864 Y103.113 E18.09825
G1 X190.6 Y107.99 E18.55185
G1 X192.033 Y108.528 E18.60276
G1 X192.864 Y108.882 E18.6328
G1 X193.722 Y109.342 E18.66518
G1 X194.506 Y109.858 E18.69639
G1 X195.241 Y110.442 E18.72762
G1 X195.921 Y111.088 E18.75881
G1 X196.543 Y111.792 E18.79006
G1 X197.099 Y112.548 E18.82127
G1 X197.586 Y113.35 E18.85248
G1 X198 Y114.192 E18.88369
G1 X198.338 Y115.068 E18.91492
G1 X198.598 Y115.969 E18.94611
G1 X198.776 Y116.891 E18.97734
G1 X198.872 Y117.819 E19.00837
G1 X198.891 Y118.482 E19.03043
G1 X198.89 Y118.784 E19.04047
G1 X198.847 Y119.686 E19.07051
G1 X198.714 Y120.651 E19.10291
G1 X198.503 Y121.566 E19.13414
G1 X198.212 Y122.457 E19.16531
G1 X197.844 Y123.321 E19.19655
G1 X197.4 Y124.148 E19.22777
G1 X196.885 Y124.933 E19.259
G1 X196.303 Y125.669 E19.2902
G1 X195.683 Y126.326 E19.32025
G1 X194.954 Y126.972 E19.35265
G1 X194.199 Y127.528 E19.38383
G1 X193.398 Y128.016 E19.41503
G1 X192.556 Y128.433 E19.44628
G1 X191.681 Y128.771 E19.47748
G1 X190.771 Y129.034 E19.50898
G1 X189.443 Y129.267 E19.55383
G1 X187.837 Y129.443 E19.60756
G1 X185.261 Y129.774 E19.69395
G1 X182.779 Y130.166 E19.77752
G1 X180.332 Y130.623 E19.86031
G1 X177.826 Y131.164 E19.94558
G1 X175.415 Y131.759 E20.02818
G1 X172.908 Y132.45 E20.11467
G1 X170.541 Y133.177 E20.19703
G1 X168.107 Y134.002 E20.28251
G1 X165.756 Y134.871 E20.36587
G1 X163.421 Y135.812 E20.44961
G1 X161.108 Y136.82 E20.53352
G1 X158.805 Y137.902 E20.61816
G1 X156.541 Y139.061 E20.70275
G1 X156.293 Y139.174 E20.71181
G1 X155.347 Y139.666 E20.74728
G1 X154.528 Y140.047 E20.77732
G1 X153.646 Y140.367 E20.80853
G1 X153.379 Y140.45 E20.81783
G1 X152.469 Y140.689 E20.84912
G1 X151.295 Y140.881 E20.88869
G1 X150.183 Y140.954 E20.92575
G1 X149.193 Y140.926 E20.95869
G1 X148.326 Y140.85 E20.98764
G1 X146.709 Y140.654 E21.04182
G1 X144.196 Y140.401 E21.12582
G1 X141.666 Y140.216 E21.21019
G1 X139.15 Y140.106 E21.29396
G1 X136.593 Y140.065 E21.37901
G1 X134.108 Y140.097 E21.46167
G1 X131.542 Y140.201 E21.54709
G1 X129.027 Y140.375 E21.63094
G1 X126.494 Y140.622 E21.71558
G1 X125.24 Y140.78 E21.75762
G1 X124.191 Y140.894 E21.79272
G1 X123.253 Y140.954 E21.82398
G1 X122.265 Y140.926 E21.85685
G1 X121.385 Y140.848 E21.88624
G1 X119.566 Y140.625 E21.94719
G1 X116.967 Y140.366 E22.03406
G1 X114.498 Y140.19 E22.11639
G1 X111.922 Y140.079 E22.20215
G1 X109.412 Y140.042 E22.28564
G1 X106.888 Y140.077 E22.3696
G1 X104.369 Y140.182 E22.45345
G1 X101.837 Y140.361 E22.53788
G1 X99.3 Y140.611 E22.62267
G1 X97.802 Y140.8 E22.67288
G1 X96.924 Y140.895 E22.70226
G1 X95.986 Y140.954 E22.73352
G1 X94.998 Y140.927 E22.76639
G1 X94.21 Y140.858 E22.7927
G1 X93.106 Y140.731 E22.82966
G1 X90.535 Y140.471 E22.91561
G1 X88.012 Y140.288 E22.99974
G1 X85.479 Y140.176 E23.08407
G1 X82.928 Y140.135 E23.16893
G1 X80.448 Y140.166 E23.25142
G1 X77.882 Y140.27 E23.33684
G1 X75.367 Y140.444 E23.42069
G1 X72.78 Y140.697 E23.50714
G1 X71.053 Y140.891 E23.56494
G1 X70.114 Y140.953 E23.59624
G1 X69.053 Y140.924 E23.63155
G1 X68.704 Y140.896 E23.64319
G1 X67.767 Y140.778 E23.6746
G1 X66.413 Y140.462 E23.72085
G1 X65.398 Y140.109 E23.75659
G1 X64.886 Y139.89 E23.77511
G1 X62.778 Y138.921 E23.85227
G1 X60.413 Y137.908 E23.93785
G1 X58.105 Y136.996 E24.02039
G1 X55.685 Y136.117 E24.10602
G1 X53.195 Y135.285 E24.19334
G1 X52.739 Y135.12 E24.20947
G1 X49.973 Y134.05 E24.30811
G1 X47.575 Y133.204 E24.39269
G1 X45.166 Y132.43 E24.47684
G1 X42.746 Y131.726 E24.56067
G1 X40.315 Y131.095 E24.64421
G1 X37.806 Y130.519 E24.72983
G1 X35.338 Y130.024 E24.81355
G1 X32.876 Y129.602 E24.89663
G1 X30.197 Y129.22 E24.98663
G1 X29.275 Y129.045 E25.01785
G1 X28.372 Y128.79 E25.04905
G1 X27.494 Y128.455 E25.08031
G1 X26.682 Y128.061 E25.11033
G1 X25.847 Y127.56 E25.14272
G1 X25.089 Y127.007 E25.17392
G1 X24.382 Y126.389 E25.20516
G1 X23.734 Y125.711 E25.23635
G1 X23.147 Y124.978 E25.26758
G1 X22.646 Y124.227 E25.29761
G1 X22.18 Y123.372 E25.33
G1 X21.819 Y122.544 E25.36004
G1 X21.511 Y121.62 E25.39243
G1 X21.295 Y120.707 E25.42364
G1 X21.161 Y119.775 E25.45496
G1 X21.109 Y118.713 E25.49032
G1 X21.11 Y118.391 E25.50103
G1 X21.153 Y117.489 E25.53107
G1 X21.286 Y116.524 E25.56346
G1 X21.497 Y115.609 E25.5947
G1 X21.788 Y114.718 E25.62587
G1 X22.156 Y113.854 E25.65711
G1 X22.6 Y113.027 E25.68833
G1 X23.115 Y112.242 E25.71955
G1 X23.698 Y111.507 E25.75076
G1 X24.343 Y110.825 E25.78198
G1 X25.046 Y110.203 E25.8132
G1 X25.801 Y109.647 E25.84438
G1 X26.602 Y109.158 E25.8756
G1 X27.436 Y108.745 E25.90655
G1 X27.875 Y108.564 E25.92234
G1 X28.711 Y108.242 E25.95214
G1 X29.525 Y107.942 E25.98099
G1 X42.437 Y102.999 E26.44084
M204 S2000
G0 F7500 X42.572 Y103.376
M204 S500
G1 F1500 X43.58 Y103.015 E26.47645
G1 X46.463 Y102.082 E26.57724
G1 X58.655 Y97.925 E27.00567
G1 X59.407 Y97.68 E27.03198
G1 X59.97 Y97.514 E27.0515
G1 X60.899 Y97.269 E27.08345
G1 X63.549 Y96.529 E27.17496
G1 X66.945 Y95.527 E27.29273
G1 X69.421 Y94.759 E27.37895
G1 X71.842 Y93.931 E27.46405
G1 X74.224 Y93.041 E27.54863
G1 X76.576 Y92.085 E27.63307
G1 X78.866 Y91.077 E27.71629
G1 X81.193 Y89.975 E27.80193
G1 X83.437 Y88.833 E27.88567
G1 X85.671 Y87.616 E27.97028
G1 X87.871 Y86.333 E28.05499
G1 X90.785 Y84.506 E28.16939
G1 X91.642 Y83.945 E28.20345
G1 X92.543 Y83.396 E28.23855
G1 X93.177 Y83.046 E28.26263
G1 X93.787 Y82.737 E28.28538
G1 X94.358 Y82.469 E28.30635
G1 X94.75 Y82.3 E28.32055
G1 X95.909 Y81.882 E28.36153
G1 X97.092 Y81.534 E28.40255
G1 X99.61 Y80.753 E28.49023
G1 X101.993 Y79.939 E28.57399
G1 X103.656 Y79.327 E28.63292
G1 X104.674 Y78.942 E28.66912
G1 X105.532 Y78.66 E28.69916
G1 X106.412 Y78.455 E28.72922
G1 X107.026 Y78.36 E28.74988
G1 X107.807 Y78.263 E28.77606
G1 X108.909 Y78.186 E28.8128
G1 X110.616 Y78.16 E28.86958
G1 X111.518 Y78.186 E28.89959
G1 X112.415 Y78.292 E28.92963
G1 X113.023 Y78.411 E28.95024
G1 X113.721 Y78.576 E28.9741
G1 X114.365 Y78.748 E28.99627
G1 X115.201 Y79.011 E29.02541
G1 X116.391 Y79.441 E29.0675
G1 X118.884 Y80.304 E29.15524
G1 X121.266 Y81.056 E29.23832
G1 X122.355 Y81.359 E29.27592
G1 X122.564 Y81.427 E29.28323
G1 X123.808 Y81.786 E29.32629
G1 X124.392 Y81.974 E29.3467
G1 X125.095 Y82.233 E29.37162
G1 X125.643 Y82.455 E29.39128
G1 X126.464 Y82.831 E29.42132
