;FLAVOR:Marlin
;TIME:55527
;Filament used: 59.5948m
;Layer height: 0.24
;MINX:38.42
;MINY:69
;MINZ:0.1
;MAXX:280.355
;MAXY:280.997
;MAXZ:10.04
;TARGET_MACHINE.NAME:Snapmaker A350
;Generated with Cura_SteamEngine 5.6.0
M82 ;absolute extrusion mode
M104 S200 ;Set Hotend Temperature
M140 S60 ;Set Bed Temperature
G28 ;home
G90 ;absolute positioning
G1 X-10 Y-10 F3000 ;Move to corner 
G1 Z0 F1800 ;Go to zero offset
M109 S200 ;Wait for Hotend Temperature
M190 S60 ;Wait for Bed Temperature
G92 E0 ;Zero set extruder position
G1 E20 F200 ;Feed filament to clear nozzle
G92 E0 ;Zero set extruder position
G92 E0
G92 E0
G1 F3600 E-5
;LAYER_COUNT:42
;LAYER:0
M107
G0 F1440 X46.599 Y72.28 Z0.2
;TYPE:SKIRT
G1 F3600 E0
G1 F1080 X47.05 Y72.051 E0.01682
G1 X47.531 Y71.895 E0.03364
G1 X48.249 Y71.801 E0.05773
G1 X104.844 Y71.8 E1.94008
G1 X107.641 Y71.76 E2.03312
G1 X110.358 Y71.645 E2.12357
G1 X113.104 Y71.45 E2.21513
G1 X115.81 Y71.182 E2.30558
G1 X118.533 Y70.834 E2.39688
G1 X121.234 Y70.409 E2.48782
G1 X123.942 Y69.906 E2.57943
G1 X126.611 Y69.331 E2.67024
G1 X127.626 Y69.099 E2.70487
G1 X128.279 Y69.02 E2.72674
G1 X129.381 Y69 E2.7634
G1 X130.693 Y69.013 E2.80704
G1 X131.524 Y69.049 E2.83471
G1 X132.809 Y69.122 E2.87752
G1 X135.562 Y69.201 E2.96912
G1 X143.266 Y69.206 E3.22535
G1 X146.029 Y69.13 E3.31729
G1 X146.925 Y69.077 E3.34714
G1 X147.047 Y69.079 E3.3512
G1 X148.264 Y69.021 E3.39172
G1 X149.457 Y69 E3.43141
G1 X150.529 Y69.012 E3.46706
G1 X151.165 Y69.083 E3.48835
G1 X152.269 Y69.321 E3.52591
G1 X153.738 Y69.657 E3.57603
G1 X156.465 Y70.199 E3.66851
G1 X159.141 Y70.653 E3.75878
G1 X161.865 Y71.037 E3.85028
G1 X164.563 Y71.339 E3.94058
G1 X167.315 Y71.569 E4.03243
G1 X170.029 Y71.718 E4.12283
G1 X174.012 Y71.8 E4.25533
G1 X227.239 Y71.8 E6.02567
G1 X227.941 Y71.81 E6.04902
G1 X228.444 Y71.857 E6.06583
G1 X228.934 Y71.983 E6.08265
G1 X229.397 Y72.185 E6.09945
G1 X229.913 Y72.512 E6.11977
G1 X230.474 Y73.048 E6.14558
G1 X249.993 Y92.567 E7.06369
G1 X250.464 Y93.053 E7.0862
G1 X250.786 Y93.443 E7.10302
G1 X251.043 Y93.878 E7.11983
G1 X251.231 Y94.362 E7.1371
G1 X251.65 Y95.76 E7.18564
G1 X251.967 Y96.862 E7.22378
G1 X255.26 Y107.611 E7.59769
G1 X256.054 Y110.085 E7.68411
G1 X256.248 Y110.661 E7.70433
G1 X256.379 Y111.204 E7.72291
G1 X256.532 Y112.222 E7.75714
G1 X256.759 Y113.941 E7.81481
G1 X257.163 Y116.69 E7.90723
G1 X257.636 Y119.388 E7.99833
G1 X258.188 Y122.079 E8.0897
G1 X258.808 Y124.726 E8.18012
G1 X259.512 Y127.383 E8.27154
G1 X260.291 Y130.021 E8.36303
G1 X261.133 Y132.602 E8.45333
G1 X262.055 Y135.18 E8.54439
G1 X263.06 Y137.757 E8.63639
G1 X264.121 Y140.264 E8.72693
G1 X265.246 Y142.73 E8.81708
G1 X266.478 Y145.235 E8.90993
G1 X267.739 Y147.631 E8.99999
G1 X269.088 Y150.023 E9.09132
G1 X270.491 Y152.355 E9.18184
G1 X271.966 Y154.656 E9.27275
G1 X273.534 Y156.958 E9.36539
G1 X275.11 Y159.136 E9.4548
G1 X276.393 Y160.835 E9.52561
G1 X276.727 Y161.357 E9.54623
G1 X277.234 Y162.68 E9.59335
G1 X277.656 Y163.883 E9.63575
G1 X277.98 Y165.322 E9.68481
G1 X278.612 Y167.966 E9.77523
G1 X279.33 Y170.628 E9.86693
G1 X280.075 Y173.148 E9.95433
G1 X280.289 Y174.197 E9.98994
G1 X280.355 Y174.864 E10.01223
G1 X280.304 Y175.581 E10.03614
G1 X280.133 Y176.576 E10.06972
G1 X279.978 Y177.116 E10.08841
G1 X279.455 Y178.549 E10.13914
G1 X279.437 Y178.619 E10.14155
G1 X279.149 Y179.397 E10.16914
G1 X278.273 Y181.976 E10.25973
G1 X277.455 Y184.625 E10.35194
G1 X277.129 Y185.764 E10.39135
G1 X276.677 Y187.102 E10.43832
G1 X276.339 Y188.003 E10.47033
G1 X275.856 Y188.938 E10.50533
G1 X275.49 Y189.598 E10.53043
G1 X274.042 Y191.583 E10.61215
G1 X272.494 Y193.818 E10.70258
G1 X270.98 Y196.144 E10.79488
G1 X269.575 Y198.442 E10.88447
G1 X268.197 Y200.846 E10.97663
G1 X266.907 Y203.251 E11.0674
G1 X265.673 Y205.717 E11.15912
G1 X264.529 Y208.175 E11.24929
G1 X263.436 Y210.709 E11.34108
G1 X262.433 Y213.224 E11.43113
G1 X261.486 Y215.813 E11.52282
G1 X260.626 Y218.387 E11.61309
G1 X259.818 Y221.053 E11.70574
G1 X259.106 Y223.665 E11.79579
G1 X258.456 Y226.353 E11.88777
G1 X257.894 Y228.994 E11.97757
G1 X257.396 Y231.715 E12.06958
G1 X256.888 Y235.095 E12.18326
G1 X256.499 Y238.029 E12.2817
G1 X256.397 Y238.728 E12.30519
G1 X256.269 Y239.272 E12.32378
G1 X255.925 Y240.311 E12.36018
G1 X255.232 Y242.479 E12.43589
G1 X251.937 Y253.233 E12.80998
G1 X251.238 Y255.618 E12.89264
G1 X251.058 Y256.09 E12.90944
G1 X250.806 Y256.528 E12.92625
G1 X250.452 Y256.97 E12.94508
G1 X230.617 Y276.808 E13.87813
G1 X230.123 Y277.287 E13.90102
G1 X229.733 Y277.61 E13.91786
G1 X229.297 Y277.866 E13.93468
G1 X228.827 Y278.051 E13.95148
G1 X228.224 Y278.184 E13.97202
G1 X227.338 Y278.2 E14.00149
G1 X174.085 Y278.2 E15.77269
G1 X171.288 Y278.24 E15.86573
G1 X168.571 Y278.355 E15.95618
G1 X165.824 Y278.55 E16.04777
G1 X163.12 Y278.818 E16.13815
G1 X160.396 Y279.166 E16.22949
G1 X157.696 Y279.591 E16.32039
G1 X155.008 Y280.09 E16.41132
G1 X151.192 Y280.918 E16.5412
G1 X150.54 Y280.984 E16.563
G1 X149.816 Y280.997 E16.58708
G1 X148.445 Y280.987 E16.63268
G1 X146.152 Y280.869 E16.70905
G1 X143.405 Y280.797 E16.80044
G1 X141.441 Y280.793 E16.86577
G1 X140.591 Y280.8 E16.89404
G1 X135.607 Y280.791 E17.05981
G1 X132.875 Y280.866 E17.15071
G1 X131.705 Y280.934 E17.18969
G1 X130.618 Y280.982 E17.22588
G1 X129.783 Y280.997 E17.25365
G1 X128.622 Y280.991 E17.29227
G1 X128.049 Y280.936 E17.31142
G1 X127.34 Y280.801 E17.33542
G1 X126.143 Y280.534 E17.37621
G1 X123.416 Y279.966 E17.46886
G1 X120.725 Y279.483 E17.55979
G1 X118.014 Y279.077 E17.65097
G1 X115.276 Y278.746 E17.74269
G1 X112.569 Y278.495 E17.83312
G1 X109.856 Y278.321 E17.92354
G1 X107.104 Y278.223 E18.01513
G1 X104.981 Y278.2 E18.08574
G1 X48.92 Y278.2 E19.95034
G1 X48.222 Y278.19 E19.97356
G1 X47.719 Y278.143 E19.99036
G1 X47.229 Y278.017 E20.00719
G1 X46.765 Y277.815 E20.02402
G1 X46.339 Y277.543 E20.04083
G1 X45.961 Y277.208 E20.05763
G1 X45.641 Y276.817 E20.07443
G1 X45.386 Y276.38 E20.09126
G1 X45.203 Y275.909 E20.10807
G1 X45.08 Y275.266 E20.12984
G1 X45.028 Y274.661 E20.15004
G1 X44.916 Y273.084 E20.20262
G1 X44.644 Y270.369 E20.29337
G1 X44.294 Y267.644 E20.38475
G1 X43.87 Y264.947 E20.47556
G1 X43.365 Y262.239 E20.56718
G1 X42.797 Y259.599 E20.65699
G1 X42.131 Y256.895 E20.74962
G1 X41.408 Y254.28 E20.83986
G1 X40.612 Y251.683 E20.9302
G1 X39.724 Y249.054 E21.02249
G1 X38.629 Y246.101 E21.12725
G1 X38.491 Y245.615 E21.14405
G1 X38.421 Y245 E21.16464
G1 X38.42 Y240.653 E21.30922
G1 X38.432 Y239.944 E21.3328
G1 X38.493 Y239.321 E21.35362
G1 X38.774 Y238.396 E21.38578
G1 X39.18 Y237.139 E21.42971
G1 X39.945 Y234.511 E21.52075
G1 X40.631 Y231.882 E21.61112
G1 X41.256 Y229.18 E21.70336
G1 X41.793 Y226.508 E21.79401
G1 X42.258 Y223.807 E21.88516
G1 X42.649 Y221.071 E21.97709
G1 X42.956 Y218.386 E22.06697
G1 X43.189 Y215.671 E22.15761
G1 X43.346 Y212.925 E22.24909
G1 X43.426 Y210.172 E22.34069
G1 X43.428 Y207.454 E22.43109
G1 X43.352 Y204.701 E22.52269
G1 X43.2 Y201.987 E22.6131
G1 X42.968 Y199.243 E22.70469
G1 X42.66 Y196.509 E22.7962
G1 X42.279 Y193.818 E22.8866
G1 X41.817 Y191.114 E22.97784
G1 X41.292 Y188.48 E23.06717
G1 X40.662 Y185.741 E23.16064
G1 X39.986 Y183.135 E23.25019
G1 X39.206 Y180.441 E23.34347
G1 X38.578 Y178.454 E23.41278
G1 X38.464 Y177.961 E23.42961
G1 X38.421 Y177.48 E23.44567
G1 X38.42 Y173.153 E23.58959
G1 X38.432 Y172.444 E23.61318
G1 X38.493 Y171.821 E23.634
G1 X38.774 Y170.896 E23.66615
G1 X39.18 Y169.639 E23.71008
G1 X39.945 Y167.011 E23.80112
G1 X40.631 Y164.382 E23.89149
G1 X41.256 Y161.68 E23.98373
G1 X41.793 Y159.008 E24.07438
G1 X42.258 Y156.307 E24.16554
G1 X42.647 Y153.583 E24.25706
G1 X42.956 Y150.886 E24.34734
G1 X43.189 Y148.171 E24.43798
G1 X43.346 Y145.425 E24.52946
G1 X43.426 Y142.672 E24.62106
G1 X43.428 Y139.954 E24.71146
G1 X43.352 Y137.201 E24.80306
G1 X43.2 Y134.487 E24.89347
G1 X42.968 Y131.743 E24.98506
G1 X42.66 Y129.009 E25.07657
G1 X42.279 Y126.318 E25.16697
G1 X41.817 Y123.614 E25.25821
G1 X41.292 Y120.98 E25.34754
G1 X40.662 Y118.241 E25.44102
G1 X39.986 Y115.635 E25.53056
G1 X39.206 Y112.941 E25.62384
G1 X38.578 Y110.954 E25.69315
G1 X38.464 Y110.461 E25.70998
G1 X38.421 Y109.98 E25.72605
G1 X38.42 Y105.657 E25.86983
G1 X38.431 Y104.951 E25.89331
G1 X38.479 Y104.448 E25.91012
G1 X38.627 Y103.898 E25.92906
G1 X38.978 Y102.943 E25.9629
G1 X39.288 Y102.138 E25.9916
G1 X40.188 Y99.59 E26.08147
G1 X41.036 Y96.954 E26.17357
G1 X41.799 Y94.326 E26.26459
G1 X42.483 Y91.699 E26.35488
G1 X43.104 Y88.994 E26.44719
G1 X43.641 Y86.319 E26.53793
G1 X44.103 Y83.622 E26.62894
G1 X44.484 Y80.944 E26.71891
G1 X44.8 Y78.156 E26.81223
G1 X45.027 Y75.478 E26.90162
G1 X45.078 Y74.777 E26.925
G1 X45.155 Y74.277 E26.94182
G1 X45.309 Y73.796 E26.95862
G1 X45.537 Y73.344 E26.97546
G1 X45.833 Y72.935 E26.99225
G1 X46.19 Y72.577 E27.00907
G1 X46.599 Y72.28 E27.02588
G1 F3600 E22.02588
G0 F1440 X41.82 Y105.2
G1 F3600 E27.02588
G1 F1080 X47.08 Y105.2 E27.20083
G1 X47.098 Y105.256 E27.20279
G1 X47.203 Y105.329 E27.20704
G1 X47.359 Y105.375 E27.21245
G1 X47.359 Y109.653 E27.35473
G1 X47.199 Y109.703 E27.36031
G1 X47.098 Y109.776 E27.36446
G1 X47.09 Y109.8 E27.3653
G1 X41.82 Y109.8 E27.54058
G1 X41.82 Y105.2 E27.69357
G0 F1440 X42.22 Y105.6
G1 F1080 X46.893 Y105.6 E27.849
G1 X46.959 Y105.651 E27.85177
G1 X46.959 Y109.385 E27.97597
G1 X46.931 Y109.4 E27.97702
G1 X42.22 Y109.4 E28.13371
G1 X42.22 Y105.6 E28.2601
G0 F1440 X42.62 Y106
G1 F1080 X46.559 Y106 E28.39111
G1 X46.559 Y109 E28.49089
G1 X42.62 Y109 E28.6219
G1 X42.62 Y106 E28.72168
G1 F3600 E23.72168
G0 F1440 X41.82 Y172.7
G1 F3600 E28.72168
G1 F1080 X47.08 Y172.7 E28.89663
G1 X47.098 Y172.756 E28.89859
G1 X47.203 Y172.829 E28.90284
G1 X47.359 Y172.875 E28.90825
G1 X47.359 Y177.153 E29.05054
G1 X47.199 Y177.203 E29.05611
G1 X47.098 Y177.276 E29.06026
G1 X47.09 Y177.3 E29.0611
G1 X41.82 Y177.3 E29.23638
G1 X41.82 Y172.7 E29.38938
G0 F1440 X42.22 Y173.1
G1 F1080 X46.893 Y173.1 E29.5448
G1 X46.959 Y173.151 E29.54758
G1 X46.959 Y176.885 E29.67177
G1 X46.931 Y176.9 E29.67283
G1 X42.22 Y176.9 E29.82951
G1 X42.22 Y173.1 E29.9559
G0 F1440 X42.62 Y173.5
G1 F1080 X46.559 Y173.5 E30.08691
G1 X46.559 Y176.5 E30.1867
G1 X42.62 Y176.5 E30.31771
G1 X42.62 Y173.5 E30.41749
G1 F3600 E25.41749
G0 F1440 X41.82 Y240.2
G1 F3600 E30.41749
G1 F1080 X47.08 Y240.2 E30.59244
G1 X47.098 Y240.256 E30.59439
G1 X47.203 Y240.329 E30.59865
G1 X47.359 Y240.375 E30.60405
G1 X47.359 Y244.653 E30.74634
G1 X47.199 Y244.703 E30.75192
G1 X47.098 Y244.776 E30.75606
G1 X47.09 Y244.8 E30.7569
G1 X41.82 Y244.8 E30.93218
G1 X41.82 Y240.2 E31.08518
G0 F1440 X42.22 Y240.6
G1 F1080 X46.893 Y240.6 E31.24061
G1 X46.959 Y240.651 E31.24338
G1 X46.959 Y244.385 E31.36757
G1 X46.931 Y244.4 E31.36863
G1 X42.22 Y244.4 E31.52532
G1 X42.22 Y240.6 E31.65171
G0 F1440 X42.62 Y241
G1 F1080 X46.559 Y241 E31.78272
G1 X46.559 Y244 E31.8825
G1 X42.62 Y244 E32.01351
G1 X42.62 Y241 E32.11329
G1 F3600 E27.11329
G0 F1440 X133.268 Y251.922
G1 F3600 E32.11329
G1 F1080 X143.468 Y251.922 E32.45254
G1 X143.468 Y262.122 E32.7918
G1 X133.268 Y262.122 E33.13105
G1 X133.268 Y251.922 E33.4703
G0 F1440 X133.668 Y252.322
G1 F1080 X143.068 Y252.322 E33.78295
G1 X143.068 Y261.722 E34.09559
G1 X133.668 Y261.722 E34.40824
G1 X133.668 Y252.322 E34.72089
G0 F1440 X134.068 Y252.722
G1 F1080 X142.668 Y252.722 E35.00692
G1 X142.668 Y261.322 E35.29296
G1 X134.068 Y261.322 E35.579
G1 X134.068 Y252.722 E35.86503
G1 F3600 E30.86503
G0 F1440 X131.514 Y275.9
G1 F3600 E35.86503
G1 F1080 X131.787 Y276.07 E35.87573
G1 X131.893 Y276.1 E35.87939
G1 X132.005 Y276.1 E35.88312
G1 X131.88 Y276.624 E35.90104
G1 X131.717 Y276.896 E35.91158
G1 X131.475 Y277.171 E35.92377
G1 X131.194 Y277.359 E35.93501
G1 X130.658 Y277.568 E35.95415
G1 X130.472 Y277.595 E35.9604
G1 X128.606 Y277.6 E36.02246
G1 X127.965 Y277.466 E36.04424
G1 X127.43 Y277.091 E36.06597
G1 X126.925 Y276.252 E36.09854
G1 X127.011 Y276.099 E36.10438
G1 X127.016 Y276.099 E36.10455
G1 X127.129 Y276.064 E36.10848
G1 X127.37 Y275.9 E36.11818
G1 X131.514 Y275.9 E36.25601
G0 F1440 X131.401 Y276.3
G1 F1080 X131.527 Y276.379 E36.26095
G1 X131.505 Y276.473 E36.26416
G1 X131.395 Y276.656 E36.27127
G1 X131.211 Y276.866 E36.28055
G1 X131.006 Y277.003 E36.28875
G1 X130.555 Y277.179 E36.30486
G1 X130.442 Y277.195 E36.30865
G1 X128.643 Y277.2 E36.36849
G1 X128.128 Y277.093 E36.38598
G1 X127.731 Y276.813 E36.40214
G1 X127.443 Y276.335 E36.4207
G1 X127.493 Y276.3 E36.42273
G1 X131.401 Y276.3 E36.55271
G0 F1440 X130.68 Y276.7
G1 F1080 X130.45 Y276.79 E36.56093
G1 X130.412 Y276.795 E36.5622
G1 X128.686 Y276.8 E36.61961
G1 X128.29 Y276.717 E36.63306
G1 X128.266 Y276.7 E36.63404
G1 X130.68 Y276.7 E36.71433
G1 F3600 E31.71433
G0 F1440 X136.606 Y276.287
G1 F3600 E36.71433
G1 F1080 X136.682 Y276.099 E36.72108
G1 X136.688 Y276.099 E36.72128
G1 X136.798 Y276.066 E36.7251
G1 X137.051 Y275.9 E36.73516
G1 X141.725 Y275.9 E36.89062
G1 X141.993 Y276.069 E36.90116
G1 X142.1 Y276.1 E36.90486
G1 X142.178 Y276.1 E36.90746
G1 X142.155 Y276.421 E36.91816
G1 X141.988 Y276.87 E36.93409
G1 X141.8 Y277.087 E36.94364
G1 X141.624 Y277.205 E36.95069
G1 X141.048 Y277.4 E36.97092
G1 X138.122 Y277.399 E37.06824
G1 X137.566 Y277.201 E37.08787
G1 X136.606 Y276.287 E37.13195
G0 F1440 X137.2 Y276.3
G1 F1080 X141.61 Y276.3 E37.27863
G1 X141.742 Y276.383 E37.28382
G1 X141.638 Y276.663 E37.29375
G1 X141.533 Y276.784 E37.29908
G1 X141.446 Y276.842 E37.30256
G1 X140.981 Y277 E37.31889
G1 X138.193 Y276.999 E37.41162
G1 X137.781 Y276.852 E37.42617
G1 X137.2 Y276.3 E37.45283
G1 F3600 E32.45283
G0 F1440 X146.918 Y276.253
G1 F3600 E37.45283
G1 F1080 X147.004 Y276.1 E37.45866
G1 X147.009 Y276.1 E37.45883
G1 X147.122 Y276.065 E37.46276
G1 X147.364 Y275.9 E37.47251
G1 X151.508 Y275.9 E37.61034
G1 X151.782 Y276.07 E37.62106
G1 X151.888 Y276.1 E37.62472
G1 X151.986 Y276.1 E37.62798
G1 X151.901 Y276.533 E37.64266
G1 X151.734 Y276.871 E37.6552
G1 X151.432 Y277.207 E37.67023
G1 X151.304 Y277.302 E37.67553
G1 X150.717 Y277.56 E37.69685
G1 X150.473 Y277.595 E37.70505
G1 X148.604 Y277.6 E37.76722
G1 X148.021 Y277.489 E37.78695
G1 X147.5 Y277.149 E37.80765
G1 X147.393 Y277.03 E37.81297
G1 X146.918 Y276.253 E37.84326
G0 F1440 X147.437 Y276.335
G1 F1080 X147.488 Y276.3 E37.84532
G1 X151.394 Y276.3 E37.97523
G1 X151.523 Y276.38 E37.98028
G1 X151.518 Y276.404 E37.98109
G1 X151.399 Y276.645 E37.99003
G1 X151.162 Y276.91 E38.00186
G1 X151.103 Y276.953 E38.00429
G1 X150.607 Y277.172 E38.02232
G1 X150.443 Y277.195 E38.02783
G1 X148.642 Y277.2 E38.08773
G1 X148.172 Y277.11 E38.10365
G1 X147.762 Y276.843 E38.11992
G1 X147.717 Y276.793 E38.12216
G1 X147.437 Y276.335 E38.14001
G0 F1440 X148.275 Y276.7
G1 F1080 X150.686 Y276.7 E38.2202
G1 X150.497 Y276.783 E38.22707
G1 X150.413 Y276.795 E38.22989
G1 X148.679 Y276.8 E38.28756
G1 X148.325 Y276.732 E38.29955
G1 X148.275 Y276.7 E38.30153
G1 F3600 E33.30153
G0 F1440 X150.153 Y176.596
G1 F3600 E38.30153
G1 F1080 X149.841 Y176.566 E38.31195
G1 X149.545 Y176.475 E38.32225
G1 X149.263 Y176.324 E38.33289
G1 X149.025 Y176.13 E38.3431
G1 X148.827 Y175.888 E38.3535
G1 X148.68 Y175.609 E38.36399
G1 X148.587 Y175.308 E38.37447
G1 X148.557 Y175 E38.38476
G1 X148.588 Y174.688 E38.39519
G1 X148.68 Y174.391 E38.40553
G1 X148.828 Y174.111 E38.41607
G1 X149.025 Y173.87 E38.42642
G1 X149.263 Y173.676 E38.43663
G1 X149.545 Y173.525 E38.44727
G1 X149.841 Y173.434 E38.45757
G1 X150.153 Y173.404 E38.468
G1 X150.465 Y173.434 E38.47842
G1 X150.766 Y173.527 E38.4889
G1 X151.037 Y173.671 E38.49911
G1 X151.282 Y173.871 E38.50962
G1 X151.482 Y174.116 E38.52014
G1 X151.626 Y174.387 E38.53035
G1 X151.719 Y174.688 E38.54083
G1 X151.749 Y175 E38.55125
G1 X151.719 Y175.311 E38.56165
G1 X151.626 Y175.614 E38.57219
G1 X151.484 Y175.883 E38.5823
G1 X151.282 Y176.129 E38.59289
G1 X151.037 Y176.329 E38.60341
G1 X150.766 Y176.473 E38.61362
G1 X150.465 Y176.566 E38.6241
G1 X150.153 Y176.596 E38.63452
G0 F1440 X150.153 Y176.194
G1 F1080 X149.922 Y176.172 E38.64224
G1 X149.699 Y176.104 E38.64999
G1 X149.485 Y175.989 E38.65807
G1 X149.306 Y175.843 E38.66576
G1 X149.162 Y175.667 E38.67332
G1 X149.051 Y175.457 E38.68122
G1 X148.981 Y175.23 E38.68912
