;FLAVOR:Marlin
;TIME:2279
;Filament used: 1.11501m
;Layer height: 0.16
;MINX:86.382
;MINY:85.251
;MINZ:0.2
;MAXX:134.768
;MAXY:134.736
;MAXZ:6.52
;TARGET_MACHINE.NAME:Creality Ender-3 S1
;Generated with Cura_SteamEngine 5.6.0
M82 ;absolute extrusion mode
; Ender 3 S1 Start G-code
; M413 S0 ; Disable power loss recovery
G92 E0 ; Reset Extruder

; Prep surfaces before auto home for better accuracy
M140 S60
M104 S200

G28 ; Home all axes
G1 Z10.0 F3000 ; Move Z Axis up little to prevent scratching of Heat Bed
G1 X0 Y0

M190 S60
M109 S200

G1 X0.1 Y20 Z0.3 F5000.0 ; Move to start position
G1 X0.1 Y200.0 Z0.3 F1500.0 E15 ; Draw the first line
G1 X0.4 Y200.0 Z0.3 F5000.0 ; Move to side a little
G1 X0.4 Y20 Z0.3 F1500.0 E30 ; Draw the second line
G92 E0 ; Reset Extruder
G1 Z2.0 F3000 ; Move Z Axis up little to prevent scratching of Heat Bed
G1 X5 Y20 Z0.3 F5000.0 ; Move over to prevent blob squish

G92 E0
G92 E0
G1 F2400 E-0.8
;LAYER_COUNT:44
;LAYER:0
M107
M204 S2000
G0 F7500 X88.054 Y88.287 Z0.2
M204 S500
;TYPE:SKIRT
G1 F2400 E0
G1 F1500 X89.627 Y86.817 E0.07161
G1 X91.285 Y85.855 E0.13536
G1 X92.053 Y85.549 E0.16286
G1 X94.015 Y85.283 E0.22871
G1 X96.084 Y85.251 E0.29754
G1 X97.121 Y85.51 E0.33309
G1 X98.841 Y85.279 E0.39081
G1 X100.857 Y85.251 E0.45787
G1 X101.291 Y85.359 E0.47274
G1 X101.624 Y85.264 E0.48426
G1 X104.596 Y85.264 E0.58311
G1 X105.601 Y85.511 E0.61753
G1 X107.332 Y85.279 E0.67562
G1 X109.352 Y85.251 E0.74281
G1 X109.722 Y85.344 E0.7555
G1 X110.053 Y85.264 E0.76683
G1 X112.944 Y85.264 E0.86298
G1 X113.949 Y85.511 E0.8974
G1 X115.68 Y85.279 E0.95549
G1 X117.709 Y85.251 E1.02298
G1 X118.319 Y85.407 E1.04392
G1 X118.708 Y85.264 E1.05771
G1 X121.787 Y85.264 E1.16011
G1 X122.783 Y85.508 E1.19422
G1 X124.492 Y85.279 E1.25157
G1 X126.501 Y85.251 E1.3184
G1 X128.421 Y85.726 E1.38418
G1 X130.438 Y86.778 E1.45984
G1 X131.91 Y88.352 E1.53152
G1 X132.891 Y90.017 E1.5958
G1 X133.157 Y90.637 E1.61824
G1 X133.416 Y92.358 E1.67612
G1 X133.453 Y95.204 E1.77079
G1 X133.852 Y95.718 E1.79243
G1 X134.768 Y98.237 E1.88158
G1 X134.768 Y103.393 E2.05307
G1 X134.317 Y105.232 E2.11605
G1 X133.722 Y106.384 E2.15917
G1 X133.756 Y106.683 E2.16918
G1 X133.784 Y109.767 E2.27176
G1 X133.325 Y111.727 E2.33871
G1 X133.101 Y112.149 E2.3546
G1 X133.099 Y127.789 E2.87479
G1 X132.633 Y129.685 E2.93973
G1 X131.58 Y131.713 E3.01573
G1 X130.004 Y133.187 E3.0875
G1 X128.28 Y134.209 E3.15416
G1 X127.798 Y134.412 E3.17156
G1 X125.956 Y134.688 E3.23351
G1 X119.656 Y134.736 E3.44305
G1 X118.582 Y134.474 E3.47982
G1 X117.227 Y134.681 E3.52541
G1 X110.841 Y134.736 E3.73782
G1 X109.984 Y134.529 E3.76714
G1 X109.42 Y134.736 E3.78712
G1 X102.49 Y134.736 E4.01762
G1 X101.571 Y134.507 E4.04912
G1 X100.362 Y134.688 E4.08978
G1 X94.025 Y134.736 E4.30055
G1 X92.117 Y134.268 E4.36589
G1 X90.091 Y133.217 E4.44181
G1 X88.632 Y131.656 E4.51287
G1 X87.425 Y129.633 E4.59122
G1 X87.143 Y127.915 E4.64913
G1 X87.067 Y111.889 E5.18216
G1 X86.575 Y110.615 E5.22758
G1 X86.382 Y109.789 E5.2558
G1 X86.382 Y106.947 E5.35032
G1 X86.534 Y106.352 E5.37075
G1 X86.535 Y92.211 E5.84108
G1 X87.001 Y90.315 E5.90602
G1 X88.054 Y88.287 E5.98202
M204 S2000
G0 F7500 X88.377 Y88.532
M204 S500
G1 F1500 X89.865 Y87.141 E6.04977
G1 X91.433 Y86.227 E6.11013
G1 X92.158 Y85.938 E6.13609
G1 X94.021 Y85.683 E6.19863
G1 X96.038 Y85.652 E6.26573
G1 X97.098 Y85.916 E6.30206
G1 X98.846 Y85.679 E6.36073
G1 X100.811 Y85.652 E6.42609
G1 X101.312 Y85.777 E6.44327
G1 X101.624 Y85.664 E6.4543
G1 X104.55 Y85.664 E6.55162
G1 X105.58 Y85.917 E6.5869
G1 X107.337 Y85.679 E6.64587
G1 X109.306 Y85.652 E6.71137
G1 X109.732 Y85.759 E6.72598
G1 X110.053 Y85.664 E6.73711
G1 X112.898 Y85.664 E6.83173
G1 X113.928 Y85.917 E6.86701
G1 X115.685 Y85.679 E6.92598
G1 X117.66 Y85.652 E6.99168
G1 X118.34 Y85.825 E7.01501
G1 X118.78 Y85.664 E7.0306
G1 X121.737 Y85.664 E7.12895
G1 X122.76 Y85.914 E7.16397
G1 X124.498 Y85.679 E7.22231
G1 X126.456 Y85.652 E7.28744
G1 X128.276 Y86.102 E7.34979
G1 X130.194 Y87.102 E7.42174
G1 X131.586 Y88.591 E7.48953
G1 X132.546 Y90.22 E7.55242
G1 X132.768 Y90.744 E7.57135
G1 X133.02 Y92.418 E7.62765
G1 X133.055 Y95.343 E7.72495
G1 X133.497 Y95.913 E7.74894
G1 X134.368 Y98.308 E7.8337
G1 X134.368 Y103.347 E8.0013
G1 X133.941 Y105.089 E8.06095
G1 X133.31 Y106.31 E8.10666
G1 X133.356 Y106.687 E8.1193
G1 X133.384 Y109.725 E8.22034
G1 X132.948 Y111.584 E8.28385
G1 X132.701 Y112.049 E8.30136
G1 X132.699 Y127.743 E8.82335
G1 X132.257 Y129.542 E8.88496
G1 X131.257 Y131.468 E8.95714
G1 X129.765 Y132.863 E9.02508
G1 X128.125 Y133.84 E9.08857
G1 X127.69 Y134.023 E9.10427
G1 X125.897 Y134.292 E9.16457
G1 X119.704 Y134.336 E9.37056
G1 X118.601 Y134.067 E9.40832
G1 X117.224 Y134.281 E9.45467
G1 X110.888 Y134.336 E9.66541
G1 X109.96 Y134.111 E9.69717
G1 X109.347 Y134.336 E9.71889
G1 X102.539 Y134.336 E9.94532
G1 X101.589 Y134.099 E9.97789
G1 X100.303 Y134.292 E10.02114
G1 X94.07 Y134.336 E10.22846
G1 X92.26 Y133.892 E10.29044
G1 X90.336 Y132.894 E10.36253
G1 X88.956 Y131.417 E10.42976
G1 X87.808 Y129.493 E10.50428
G1 X87.538 Y127.85 E10.55966
G1 X87.467 Y111.812 E11.09309
G1 X86.965 Y110.524 E11.13907
G1 X86.782 Y109.741 E11.16581
G1 X86.782 Y106.999 E11.25701
G1 X86.934 Y106.404 E11.27744
G1 X86.935 Y92.257 E11.74797
G1 X87.377 Y90.458 E11.80958
G1 X88.377 Y88.532 E11.88176
M204 S2000
G0 F7500 X88.7 Y88.777
M204 S500
G1 F1500 X90.104 Y87.465 E11.94567
G1 X91.634 Y86.573 E12.00458
G1 X92.26 Y86.328 E12.02694
G1 X94.027 Y86.083 E12.08627
G1 X95.993 Y86.053 E12.15167
G1 X97.076 Y86.322 E12.18878
G1 X98.851 Y86.079 E12.24837
G1 X100.765 Y86.053 E12.31204
G1 X101.333 Y86.195 E12.33151
G1 X101.694 Y86.064 E12.34428
G1 X104.504 Y86.064 E12.43774
G1 X105.559 Y86.323 E12.47387
G1 X107.342 Y86.079 E12.53373
G1 X109.26 Y86.053 E12.59753
G1 X109.741 Y86.173 E12.61402
G1 X110.112 Y86.064 E12.62688
G1 X112.852 Y86.064 E12.71801
G1 X113.907 Y86.323 E12.75414
G1 X115.69 Y86.079 E12.814
G1 X117.612 Y86.053 E12.87793
G1 X118.361 Y86.243 E12.90363
G1 X118.851 Y86.064 E12.92098
G1 X121.687 Y86.064 E13.01531
G1 X122.737 Y86.321 E13.05126
G1 X124.503 Y86.079 E13.11055
G1 X126.411 Y86.053 E13.17401
G1 X128.131 Y86.478 E13.23294
G1 X129.95 Y87.426 E13.30117
G1 X131.262 Y88.83 E13.36508
G1 X132.201 Y90.423 E13.42658
G1 X132.379 Y90.851 E13.442
G1 X132.624 Y92.478 E13.49672
G1 X132.656 Y95.482 E13.59664
G1 X133.142 Y96.108 E13.623
G1 X133.968 Y98.379 E13.70338
G1 X133.968 Y103.297 E13.86695
G1 X133.563 Y104.95 E13.92355
G1 X132.897 Y106.238 E13.97178
G1 X132.956 Y106.691 E13.98698
G1 X132.984 Y109.683 E14.08649
G1 X132.571 Y111.441 E14.14656
G1 X132.301 Y111.949 E14.16569
G1 X132.299 Y127.696 E14.68944
G1 X131.88 Y129.4 E14.7478
G1 X130.934 Y131.223 E14.81611
G1 X129.526 Y132.539 E14.88021
G1 X127.92 Y133.496 E14.9424
G1 X127.583 Y133.634 E14.95451
G1 X125.838 Y133.896 E15.0132
G1 X119.752 Y133.936 E15.21562
G1 X118.619 Y133.659 E15.25442
G1 X117.221 Y133.881 E15.3015
G1 X110.935 Y133.936 E15.51058
G1 X109.937 Y133.694 E15.54473
G1 X109.275 Y133.936 E15.56818
G1 X102.588 Y133.936 E15.79059
G1 X101.607 Y133.691 E15.82422
G1 X100.244 Y133.896 E15.87006
G1 X94.115 Y133.936 E16.07392
G1 X92.403 Y133.516 E16.13255
G1 X90.581 Y132.571 E16.20081
G1 X89.277 Y131.175 E16.26435
G1 X88.191 Y129.355 E16.33484
G1 X87.933 Y127.785 E16.38776
G1 X87.867 Y111.735 E16.92159
G1 X87.338 Y110.379 E16.97
G1 X87.182 Y109.695 E16.99333
G1 X87.182 Y107.051 E17.08127
G1 X87.334 Y106.456 E17.1017
G1 X87.335 Y92.304 E17.5724
G1 X87.754 Y90.6 E17.63076
G1 X88.7 Y88.777 E17.69907
M204 S2000
G0 F7500 X89.023 Y89.022
M204 S500
G1 F1500 X90.344 Y87.788 E17.7592
G1 X91.779 Y86.946 E17.81453
G1 X92.363 Y86.718 E17.83538
G1 X94.033 Y86.483 E17.89148
G1 X95.948 Y86.454 E17.95518
G1 X97.098 Y86.739 E17.99458
G1 X97.231 Y86.704 E17.99916
G1 X98.856 Y86.479 E18.05372
G1 X100.719 Y86.454 E18.11569
G1 X101.355 Y86.613 E18.13749
G1 X101.765 Y86.464 E18.152
G1 X104.458 Y86.464 E18.24157
G1 X105.585 Y86.741 E18.28017
G1 X105.723 Y86.704 E18.28492
G1 X107.347 Y86.479 E18.33946
G1 X109.214 Y86.454 E18.40156
G1 X109.762 Y86.591 E18.42035
G1 X110.112 Y86.464 E18.43273
G1 X112.806 Y86.464 E18.52233
G1 X113.933 Y86.741 E18.56093
G1 X114.071 Y86.704 E18.56568
G1 X115.695 Y86.479 E18.62021
G1 X117.564 Y86.454 E18.68238
G1 X118.382 Y86.661 E18.71045
G1 X118.922 Y86.464 E18.72957
G1 X121.637 Y86.464 E18.81987
G1 X122.756 Y86.737 E18.85818
G1 X122.884 Y86.704 E18.86257
G1 X124.508 Y86.479 E18.9171
G1 X126.366 Y86.454 E18.97891
G1 X127.986 Y86.854 E19.03441
G1 X129.706 Y87.75 E19.09891
G1 X130.938 Y89.069 E19.15894
G1 X131.856 Y90.626 E19.21906
G1 X131.99 Y90.958 E19.23097
G1 X132.228 Y92.538 E19.28411
G1 X132.257 Y95.622 E19.38669
G1 X132.788 Y96.305 E19.41546
G1 X133.568 Y98.45 E19.49138
G1 X133.568 Y103.247 E19.65092
G1 X133.185 Y104.811 E19.70448
G1 X132.484 Y106.166 E19.75522
G1 X132.559 Y106.743 E19.77457
G1 X132.584 Y109.64 E19.87093
G1 X132.194 Y111.298 E19.92758
G1 X131.901 Y111.85 E19.94837
G1 X131.899 Y127.65 E20.47388
G1 X131.504 Y129.257 E20.52892
G1 X130.611 Y130.978 E20.59341
G1 X129.287 Y132.215 E20.65367
G1 X127.715 Y133.152 E20.71454
G1 X127.472 Y133.247 E20.72322
G1 X125.835 Y133.496 E20.77829
G1 X119.801 Y133.536 E20.97899
G1 X118.592 Y133.241 E21.02038
G1 X118.468 Y133.278 E21.02468
G1 X117.217 Y133.481 E21.06684
G1 X110.982 Y133.536 E21.27422
G1 X109.914 Y133.277 E21.31077
G1 X109.204 Y133.536 E21.33591
G1 X102.637 Y133.536 E21.55433
G1 X101.625 Y133.283 E21.58902
G1 X100.184 Y133.5 E21.63749
G1 X94.16 Y133.536 E21.83785
G1 X92.546 Y133.14 E21.89313
G1 X90.826 Y132.248 E21.95757
G1 X89.598 Y130.933 E22.01741
G1 X88.574 Y129.217 E22.08388
G1 X88.328 Y127.72 E22.13434
G1 X88.267 Y111.658 E22.66856
G1 X87.728 Y110.29 E22.71747
G1 X87.582 Y109.65 E22.7393
G1 X87.582 Y107.103 E22.82401
G1 X87.734 Y106.508 E22.84444
G1 X87.735 Y92.35 E23.31534
G1 X88.13 Y90.743 E23.37038
G1 X89.023 Y89.022 E23.43486
M204 S2000
G0 F7500 X89.346 Y89.267
M204 S500
G1 F1500 X90.586 Y88.109 E23.49129
G1 X91.924 Y87.319 E23.54297
G1 X92.465 Y87.108 E23.56229
G1 X94.039 Y86.883 E23.61517
G1 X95.904 Y86.855 E23.67721
G1 X97.11 Y87.154 E23.71854
G1 X97.287 Y87.1 E23.72469
G1 X98.861 Y86.879 E23.77756
G1 X100.673 Y86.855 E23.83783
G1 X101.376 Y87.03 E23.86192
G1 X101.835 Y86.864 E23.87816
G1 X104.412 Y86.864 E23.96387
G1 X105.596 Y87.155 E24.00442
G1 X105.779 Y87.1 E24.01078
G1 X107.352 Y86.879 E24.06361
G1 X109.168 Y86.855 E24.12401
G1 X109.784 Y87.009 E24.14513
G1 X110.183 Y86.864 E24.15925
G1 X112.76 Y86.864 E24.24496
G1 X113.944 Y87.155 E24.28552
G1 X114.127 Y87.1 E24.29187
G1 X115.7 Y86.879 E24.3447
G1 X117.516 Y86.855 E24.40511
G1 X118.403 Y87.079 E24.43554
G1 X118.993 Y86.864 E24.45642
G1 X121.587 Y86.864 E24.5427
G1 X122.766 Y87.152 E24.58307
G1 X122.94 Y87.1 E24.58911
G1 X124.513 Y86.879 E24.64194
G1 X126.321 Y86.855 E24.70208
G1 X127.841 Y87.23 E24.75415
G1 X129.462 Y88.074 E24.81493
G1 X130.615 Y89.309 E24.87113
G1 X131.485 Y90.776 E24.92786
G1 X131.601 Y91.063 E24.93815
G1 X131.832 Y92.598 E24.98978
G1 X131.858 Y95.76 E25.09495
G1 X132.433 Y96.5 E25.12612
G1 X133.168 Y98.521 E25.19765
G1 X133.168 Y103.197 E25.35317
G1 X132.807 Y104.672 E25.40368
G1 X132.071 Y106.094 E25.45694
G1 X132.159 Y106.747 E25.47885
G1 X132.184 Y109.596 E25.57361
G1 X131.817 Y111.155 E25.62688
G1 X131.501 Y111.75 E25.64929
G1 X131.499 Y127.604 E26.1766
G1 X131.128 Y129.114 E26.22831
G1 X130.288 Y130.733 E26.28898
G1 X129.048 Y131.891 E26.34541
G1 X127.51 Y132.808 E26.40497
G1 X127.367 Y132.859 E26.41001
G1 X125.832 Y133.096 E26.46167
G1 X119.85 Y133.136 E26.66064
G1 X118.574 Y132.824 E26.70433
G1 X118.402 Y132.883 E26.71038
G1 X117.213 Y133.081 E26.75047
G1 X111.029 Y133.136 E26.95616
G1 X109.891 Y132.86 E26.99511
G1 X109.133 Y133.136 E27.02194
G1 X102.686 Y133.136 E27.23636
G1 X101.597 Y132.864 E27.2737
G1 X101.466 Y132.902 E27.27823
G1 X100.124 Y133.104 E27.32337
G1 X94.205 Y133.136 E27.52024
G1 X92.689 Y132.764 E27.57216
G1 X91.071 Y131.925 E27.63278
G1 X89.919 Y130.691 E27.68893
G1 X88.957 Y129.079 E27.75136
G1 X88.723 Y127.655 E27.79936
G1 X88.667 Y111.58 E28.33402
G1 X88.118 Y110.201 E28.38339
G1 X87.982 Y109.605 E28.40372
G1 X87.982 Y107.155 E28.48521
G1 X88.134 Y106.56 E28.50563
G1 X88.135 Y92.396 E28.97673
G1 X88.506 Y90.886 E29.02845
G1 X89.346 Y89.267 E29.08911
M204 S2000
G0 F7500 X89.669 Y89.512
M204 S500
G1 F1500 X90.826 Y88.432 E29.14175
G1 X92.07 Y87.692 E29.1899
G1 X92.569 Y87.497 E29.20772
G1 X94.045 Y87.283 E29.25732
G1 X95.859 Y87.256 E29.31766
G1 X97.13 Y87.571 E29.36121
G1 X97.343 Y87.496 E29.36872
G1 X98.866 Y87.279 E29.41989
G1 X100.627 Y87.256 E29.47847
G1 X101.398 Y87.448 E29.50489
G1 X101.905 Y87.264 E29.52283
G1 X104.365 Y87.264 E29.60465
G1 X105.616 Y87.572 E29.6475
G1 X105.835 Y87.496 E29.65521
G1 X107.357 Y87.279 E29.70635
G1 X109.122 Y87.256 E29.76506
G1 X109.805 Y87.426 E29.78847
G1 X110.253 Y87.264 E29.80431
G1 X112.713 Y87.264 E29.88613
G1 X113.964 Y87.572 E29.92898
G1 X114.183 Y87.496 E29.93669
G1 X115.705 Y87.279 E29.98783
G1 X117.468 Y87.256 E30.04647
G1 X118.424 Y87.497 E30.07926
G1 X119.064 Y87.264 E30.10191
G1 X121.537 Y87.264 E30.18417
G1 X122.784 Y87.569 E30.22686
G1 X122.996 Y87.496 E30.23432
G1 X124.518 Y87.279 E30.28546
G1 X126.276 Y87.256 E30.34393
G1 X127.696 Y87.606 E30.39257
G1 X129.218 Y88.398 E30.44964
G1 X130.294 Y89.551 E30.50209
G1 X131.114 Y90.925 E30.55531
G1 X131.211 Y91.166 E30.56395
G1 X131.436 Y92.658 E30.61414
G1 X131.459 Y95.898 E30.7219
G1 X132.078 Y96.695 E30.75547
G1 X132.768 Y98.592 E30.82261
G1 X132.768 Y103.147 E30.97411
G1 X132.428 Y104.535 E31.02164
G1 X131.73 Y105.887 E31.07224
G1 X131.653 Y105.994 E31.07663
G1 X131.759 Y106.751 E31.10205
G1 X131.784 Y109.552 E31.19522
G1 X131.44 Y111.012 E31.24511
G1 X131.101 Y111.65 E31.26914
G1 X131.099 Y127.557 E31.79821
G1 X130.751 Y128.972 E31.84667
G1 X129.965 Y130.488 E31.90347
G1 X128.809 Y131.567 E31.95606
G1 X127.305 Y132.464 E32.01431
G1 X125.829 Y132.696 E32.064
G1 X119.899 Y132.736 E32.26124
G1 X118.545 Y132.405 E32.3076
G1 X118.336 Y132.488 E32.31508
G1 X117.147 Y132.686 E32.35517
G1 X111.077 Y132.736 E32.55707
G1 X109.868 Y132.442 E32.59845
G1 X109.062 Y132.736 E32.62698
G1 X102.735 Y132.736 E32.83742
G1 X101.581 Y132.448 E32.87698
G1 X101.406 Y132.506 E32.88311
G1 X100.064 Y132.708 E32.92825
G1 X94.25 Y132.736 E33.12163
G1 X92.832 Y132.388 E33.17019
G1 X91.316 Y131.602 E33.22699
G1 X90.24 Y130.449 E33.27944
G1 X89.34 Y128.941 E33.33785
G1 X89.118 Y127.59 E33.38339
G1 X89.067 Y111.502 E33.91848
G1 X88.49 Y110.053 E33.97035
G1 X88.382 Y109.559 E33.98717
G1 X88.382 Y107.207 E34.0654
G1 X88.534 Y106.612 E34.08582
G1 X88.535 Y92.443 E34.55709
G1 X88.883 Y91.028 E34.60555
G1 X89.669 Y89.512 E34.66235
M204 S2000
G0 F7500 X89.992 Y89.757
M204 S500
G1 F1500 X91.067 Y88.754 E34.71125
G1 X92.274 Y88.036 E34.75796
G1 X92.669 Y87.887 E34.772
G1 X94.051 Y87.683 E34.81847
G1 X95.814 Y87.657 E34.87711
G1 X97.16 Y87.99 E34.92323
G1 X97.4 Y87.892 E34.93185
G1 X98.871 Y87.679 E34.98129
G1 X100.581 Y87.657 E35.03817
G1 X101.42 Y87.866 E35.06692
G1 X101.976 Y87.664 E35.0866
G1 X104.318 Y87.664 E35.16449
G1 X105.646 Y87.991 E35.20998
G1 X105.892 Y87.892 E35.2188
G1 X107.362 Y87.679 E35.26821
G1 X109.076 Y87.657 E35.32522
G1 X109.827 Y87.844 E35.35096
G1 X110.323 Y87.664 E35.36851
G1 X112.666 Y87.664 E35.44644
G1 X113.994 Y87.991 E35.49193
G1 X114.24 Y87.892 E35.50075
G1 X115.71 Y87.679 E35.55015
G1 X117.42 Y87.657 E35.60703
G1 X118.446 Y87.915 E35.64222
G1 X119.135 Y87.664 E35.66661
G1 X121.487 Y87.664 E35.74483
G1 X122.814 Y87.989 E35.79027
G1 X123.053 Y87.892 E35.79885
G1 X124.523 Y87.679 E35.84826
G1 X126.231 Y87.657 E35.90507
G1 X127.553 Y87.983 E35.95036
G1 X128.973 Y88.721 E36.00358
G1 X129.973 Y89.793 E36.05234
G1 X130.771 Y91.13 E36.10413
G1 X130.823 Y91.273 E36.10919
G1 X131.036 Y92.661 E36.1559
G1 X131.06 Y96.036 E36.26815
G1 X131.723 Y96.89 E36.30411
G1 X132.368 Y98.663 E36.36686
G1 X132.368 Y103.097 E36.51434
G1 X132.05 Y104.396 E36.55882
G1 X131.375 Y105.703 E36.60774
G1 X131.232 Y105.879 E36.61529
G1 X131.359 Y106.755 E36.64473
G1 X131.384 Y109.508 E36.7363
