;FLAVOR:Marlin
;TIME:901
;Filament used: 0.533126m
;Layer height: 0.16
;MINX:76.975
;MINY:89.2
;MINZ:0.2
;MAXX:142.041
;MAXY:130.8
;MAXZ:3.72
;TARGET_MACHINE.NAME:Creality Ender-3 S1
;Generated with Cura_SteamEngine 5.6.0
M82 ;absolute extrusion mode
; Ender 3 S1 Start G-code
; M413 S0 ; Disable power loss recovery
G92 E0 ; Reset Extruder

; Prep surfaces before auto home for better accuracy
M140 S60
M104 S200

G28 ; Home all axes
G1 Z10.0 F3000 ; Move Z Axis up little to prevent scratching of Heat Bed
G1 X0 Y0

M190 S60
M109 S200

G1 X0.1 Y20 Z0.3 F5000.0 ; Move to start position
G1 X0.1 Y200.0 Z0.3 F1500.0 E15 ; Draw the first line
G1 X0.4 Y200.0 Z0.3 F5000.0 ; Move to side a little
G1 X0.4 Y20 Z0.3 F1500.0 E30 ; Draw the second line
G92 E0 ; Reset Extruder
G1 Z2.0 F3000 ; Move Z Axis up little to prevent scratching of Heat Bed
G1 X5 Y20 Z0.3 F5000.0 ; Move over to prevent blob squish

G92 E0
G92 E0
G1 F2400 E-0.8
;LAYER_COUNT:23
;LAYER:0
M107
M204 S2000
G0 F7500 X81.048 Y90.756 Z0.2
M204 S500
;TYPE:SKIRT
G1 F2400 E0
G1 F1500 X82.713 Y89.775 E0.06428
G1 X83.333 Y89.509 E0.08671
G1 X85.054 Y89.25 E0.1446
G1 X90.303 Y89.2 E0.31919
G1 X92.126 Y89.645 E0.3816
G1 X94.199 Y90.717 E0.45923
G1 X95.469 Y92.078 E0.52114
G1 X96.884 Y90.756 E0.58555
G1 X98.549 Y89.775 E0.64982
G1 X99.169 Y89.509 E0.67226
G1 X100.89 Y89.25 E0.73015
G1 X106.139 Y89.2 E0.90474
G1 X107.962 Y89.645 E0.96715
G1 X110.035 Y90.719 E1.0448
G1 X110.599 Y91.323 E1.07229
G1 X111.207 Y90.756 E1.09994
G1 X112.872 Y89.775 E1.16421
G1 X113.492 Y89.509 E1.18665
G1 X115.213 Y89.25 E1.24454
G1 X120.462 Y89.2 E1.41913
G1 X122.285 Y89.645 E1.48154
G1 X124.362 Y90.717 E1.55928
G1 X125.081 Y91.489 E1.59437
G1 X125.866 Y90.756 E1.63009
G1 X127.531 Y89.775 E1.69437
G1 X128.151 Y89.509 E1.71681
G1 X129.872 Y89.25 E1.77469
G1 X135.122 Y89.2 E1.94932
G1 X136.945 Y89.645 E2.01173
G1 X139.018 Y90.717 E2.08935
G1 X140.477 Y92.28 E2.16047
G1 X141.684 Y94.303 E2.23882
G1 X141.966 Y96.021 E2.29672
G1 X142.041 Y123.853 E3.22242
G1 X141.575 Y125.749 E3.28736
G1 X140.522 Y127.777 E3.36336
G1 X138.953 Y129.244 E3.43481
G1 X137.288 Y130.225 E3.49908
G1 X136.668 Y130.491 E3.52152
G1 X134.947 Y130.75 E3.57941
G1 X129.697 Y130.8 E3.75403
G1 X127.874 Y130.355 E3.81644
G1 X125.801 Y129.284 E3.89405
G1 X125.08 Y128.51 E3.92923
G1 X124.294 Y129.244 E3.965
G1 X122.629 Y130.225 E4.02928
G1 X122.009 Y130.491 E4.05171
G1 X120.288 Y130.75 E4.1096
G1 X115.038 Y130.8 E4.28422
G1 X113.215 Y130.355 E4.34664
G1 X111.142 Y129.281 E4.42429
G1 X110.578 Y128.677 E4.45177
G1 X109.971 Y129.244 E4.4794
G1 X108.306 Y130.225 E4.54368
G1 X107.686 Y130.491 E4.56612
G1 X105.965 Y130.75 E4.624
G1 X100.715 Y130.8 E4.79863
G1 X98.892 Y130.355 E4.86104
G1 X96.819 Y129.284 E4.93864
G1 X95.549 Y127.922 E5.00058
G1 X94.135 Y129.244 E5.06497
G1 X92.47 Y130.225 E5.12924
G1 X91.85 Y130.491 E5.15168
G1 X90.129 Y130.75 E5.20957
G1 X84.878 Y130.8 E5.38422
G1 X83.055 Y130.355 E5.44664
G1 X80.982 Y129.283 E5.52426
G1 X79.52 Y127.717 E5.59551
G1 X78.394 Y125.828 E5.66866
G1 X78.292 Y125.545 E5.67866
G1 X78.019 Y123.793 E5.73764
G1 X77.966 Y115.351 E6.01843
G1 X77.827 Y115.121 E6.02736
G1 X76.975 Y112.775 E6.11038
G1 X76.975 Y107.647 E6.28094
G1 X77.441 Y105.751 E6.34587
G1 X77.96 Y104.747 E6.38347
G1 X77.96 Y96.147 E6.6695
G1 X78.426 Y94.251 E6.73444
G1 X79.479 Y92.223 E6.81044
G1 X81.048 Y90.756 E6.88189
M204 S2000
G0 F7500 X81.287 Y91.08
M204 S500
G1 F1500 X82.916 Y90.12 E6.94477
G1 X83.44 Y89.898 E6.9637
G1 X85.114 Y89.646 E7.02001
G1 X90.255 Y89.6 E7.191
G1 X91.987 Y90.023 E7.2503
G1 X93.954 Y91.041 E7.32397
G1 X95.305 Y92.488 E7.38981
G1 X95.482 Y92.766 E7.40077
G1 X95.637 Y92.469 E7.41192
G1 X97.123 Y91.08 E7.47957
G1 X98.752 Y90.12 E7.54246
G1 X99.276 Y89.898 E7.56139
G1 X100.95 Y89.646 E7.61769
G1 X106.091 Y89.6 E7.78869
G1 X107.823 Y90.023 E7.84799
G1 X109.79 Y91.042 E7.92167
G1 X110.58 Y91.888 E7.96017
G1 X111.446 Y91.08 E7.99956
G1 X113.075 Y90.12 E8.06245
G1 X113.599 Y89.898 E8.08138
G1 X115.273 Y89.646 E8.13768
G1 X120.414 Y89.6 E8.30868
G1 X122.146 Y90.023 E8.36798
G1 X124.115 Y91.04 E8.44169
G1 X125.061 Y92.055 E8.48784
G1 X126.105 Y91.08 E8.53535
G1 X127.734 Y90.12 E8.59824
G1 X128.258 Y89.898 E8.61717
G1 X129.932 Y89.646 E8.67347
G1 X135.074 Y89.6 E8.8445
G1 X136.806 Y90.023 E8.9038
G1 X138.773 Y91.041 E8.97747
G1 X140.153 Y92.519 E9.04472
G1 X141.301 Y94.443 E9.11924
G1 X141.571 Y96.086 E9.17462
G1 X141.641 Y123.807 E10.09663
G1 X141.199 Y125.606 E10.15824
G1 X140.199 Y127.532 E10.23042
G1 X138.714 Y128.92 E10.29803
G1 X137.085 Y129.88 E10.36092
G1 X136.561 Y130.102 E10.37984
G1 X134.887 Y130.354 E10.43615
G1 X129.745 Y130.4 E10.60718
G1 X128.013 Y129.977 E10.66648
G1 X126.046 Y128.96 E10.74013
G1 X125.099 Y127.945 E10.7863
G1 X124.055 Y128.92 E10.83381
G1 X122.426 Y129.88 E10.8967
G1 X121.902 Y130.102 E10.91563
G1 X120.228 Y130.354 E10.97193
G1 X115.086 Y130.4 E11.14296
G1 X113.354 Y129.977 E11.20226
G1 X111.387 Y128.958 E11.27594
G1 X110.597 Y128.112 E11.31444
G1 X109.732 Y128.92 E11.35381
G1 X108.103 Y129.88 E11.4167
G1 X107.579 Y130.102 E11.43563
G1 X105.905 Y130.354 E11.49193
G1 X100.763 Y130.4 E11.66296
G1 X99.031 Y129.977 E11.72226
G1 X97.064 Y128.96 E11.79591
G1 X95.71 Y127.509 E11.86192
G1 X95.536 Y127.236 E11.87269
G1 X95.382 Y127.531 E11.88376
G1 X93.896 Y128.92 E11.95141
G1 X92.267 Y129.88 E12.0143
G1 X91.743 Y130.102 E12.03323
G1 X90.069 Y130.354 E12.08953
G1 X84.926 Y130.4 E12.2606
G1 X83.194 Y129.977 E12.3199
G1 X81.227 Y128.959 E12.39356
G1 X79.844 Y127.478 E12.46096
G1 X78.738 Y125.623 E12.53279
G1 X78.687 Y125.482 E12.53778
G1 X78.419 Y123.79 E12.59476
G1 X78.365 Y115.23 E12.87947
G1 X78.203 Y114.984 E12.88926
G1 X77.375 Y112.704 E12.96994
G1 X77.375 Y107.693 E13.13661
G1 X77.817 Y105.894 E13.19822
G1 X78.36 Y104.844 E13.23754
G1 X78.36 Y96.193 E13.52527
G1 X78.802 Y94.394 E13.58689
G1 X79.802 Y92.468 E13.65907
G1 X81.287 Y91.08 E13.72668
M204 S2000
G0 F7500 X81.526 Y91.404
M204 S500
G1 F1500 X83.119 Y90.465 E13.78818
G1 X83.547 Y90.287 E13.8036
G1 X85.174 Y90.042 E13.85832
G1 X90.207 Y90 E14.02572
G1 X91.848 Y90.401 E14.08191
G1 X93.709 Y91.365 E14.15162
G1 X95.013 Y92.761 E14.21516
G1 X95.506 Y93.588 E14.24718
G1 X95.961 Y92.713 E14.27998
G1 X97.362 Y91.404 E14.34375
G1 X98.955 Y90.465 E14.40526
G1 X99.383 Y90.287 E14.42067
G1 X101.01 Y90.042 E14.4754
G1 X106.043 Y90 E14.6428
G1 X107.684 Y90.401 E14.69899
G1 X109.545 Y91.365 E14.7687
G1 X110.561 Y92.453 E14.81821
G1 X111.685 Y91.404 E14.86934
G1 X113.278 Y90.465 E14.93085
G1 X113.706 Y90.287 E14.94626
G1 X115.333 Y90.042 E15.00099
G1 X120.366 Y90 E15.16839
G1 X122.007 Y90.401 E15.22458
G1 X123.868 Y91.363 E15.29426
G1 X125.041 Y92.621 E15.35146
G1 X126.344 Y91.404 E15.41077
G1 X127.937 Y90.465 E15.47227
G1 X128.365 Y90.287 E15.48769
G1 X129.992 Y90.042 E15.54241
G1 X135.026 Y90 E15.70985
G1 X136.667 Y90.401 E15.76603
G1 X138.528 Y91.365 E15.83574
G1 X139.832 Y92.761 E15.89928
G1 X140.918 Y94.581 E15.96977
G1 X141.176 Y96.151 E16.02269
G1 X141.241 Y123.76 E16.94097
G1 X140.822 Y125.464 E16.99933
G1 X139.876 Y127.287 E17.06764
G1 X138.475 Y128.596 E17.13142
G1 X136.882 Y129.535 E17.19292
G1 X136.454 Y129.713 E17.20834
G1 X134.827 Y129.958 E17.26306
G1 X129.793 Y130 E17.4305
G1 X128.152 Y129.599 E17.48668
G1 X126.291 Y128.636 E17.55638
G1 X125.118 Y127.38 E17.61354
G1 X123.816 Y128.596 E17.67279
G1 X122.223 Y129.535 E17.73429
G1 X121.795 Y129.713 E17.74971
G1 X120.168 Y129.958 E17.80444
G1 X115.134 Y130 E17.97187
G1 X113.493 Y129.599 E18.02806
G1 X111.632 Y128.635 E18.09777
G1 X110.616 Y127.547 E18.14728
G1 X109.493 Y128.596 E18.19839
G1 X107.9 Y129.535 E18.25989
G1 X107.472 Y129.713 E18.27531
G1 X105.845 Y129.958 E18.33004
G1 X100.811 Y130 E18.49747
G1 X99.17 Y129.599 E18.55366
G1 X97.309 Y128.636 E18.62335
G1 X96.002 Y127.236 E18.68705
G1 X95.512 Y126.414 E18.71888
G1 X95.058 Y127.287 E18.75161
G1 X93.657 Y128.596 E18.81538
G1 X92.064 Y129.535 E18.87689
G1 X91.636 Y129.713 E18.8923
G1 X90.009 Y129.958 E18.94703
G1 X84.974 Y130 E19.1145
G1 X83.333 Y129.599 E19.17068
G1 X81.472 Y128.635 E19.24039
G1 X80.168 Y127.239 E19.30393
G1 X79.082 Y125.418 E19.37445
G1 X78.819 Y123.787 E19.4294
G1 X78.764 Y115.096 E19.71847
G1 X78.579 Y114.847 E19.72878
G1 X77.775 Y112.633 E19.80713
G1 X77.775 Y107.74 E19.96987
G1 X78.194 Y106.036 E20.02823
G1 X78.76 Y104.941 E20.06923
G1 X78.76 Y96.24 E20.35863
G1 X79.179 Y94.536 E20.41699
G1 X80.125 Y92.713 E20.4853
G1 X81.526 Y91.404 E20.54907
M204 S2000
G0 F7500 X81.765 Y91.728
M204 S500
G1 F1500 X83.322 Y90.81 E20.60919
G1 X83.654 Y90.676 E20.6211
G1 X85.234 Y90.438 E20.67424
G1 X90.159 Y90.4 E20.83805
G1 X91.709 Y90.779 E20.89112
G1 X93.464 Y91.688 E20.95686
G1 X94.692 Y93.003 E21.0167
G1 X95.531 Y94.409 E21.07116
G1 X96.284 Y92.958 E21.12553
G1 X97.601 Y91.728 E21.18547
G1 X99.158 Y90.81 E21.24558
G1 X99.49 Y90.676 E21.25749
G1 X101.07 Y90.438 E21.31064
G1 X105.995 Y90.4 E21.47445
G1 X107.545 Y90.779 E21.52752
G1 X109.3 Y91.688 E21.59326
G1 X110.565 Y93.043 E21.65491
G1 X110.657 Y92.911 E21.66026
G1 X111.924 Y91.728 E21.71792
G1 X113.481 Y90.81 E21.77803
G1 X113.813 Y90.676 E21.78994
G1 X115.393 Y90.438 E21.84309
G1 X120.318 Y90.4 E22.0069
G1 X121.868 Y90.779 E22.05997
G1 X123.623 Y91.687 E22.12569
G1 X124.857 Y93.009 E22.18584
G1 X125.061 Y93.352 E22.19911
G1 X125.266 Y92.958 E22.21388
G1 X126.583 Y91.728 E22.27382
G1 X128.14 Y90.81 E22.33394
G1 X128.472 Y90.676 E22.34585
G1 X130.052 Y90.438 E22.39899
G1 X134.978 Y90.4 E22.56283
G1 X136.528 Y90.779 E22.61591
G1 X138.283 Y91.688 E22.68164
G1 X139.511 Y93.003 E22.74148
G1 X140.535 Y94.719 E22.80795
G1 X140.781 Y96.216 E22.85841
G1 X140.841 Y123.714 E23.773
G1 X140.446 Y125.321 E23.82804
G1 X139.553 Y127.042 E23.89252
G1 X138.236 Y128.272 E23.95246
G1 X136.679 Y129.19 E24.01258
G1 X136.347 Y129.324 E24.02448
G1 X134.767 Y129.562 E24.07763
G1 X129.841 Y129.6 E24.24147
G1 X128.291 Y129.221 E24.29455
G1 X126.536 Y128.312 E24.36028
G1 X125.305 Y126.994 E24.42027
G1 X125.099 Y126.648 E24.43366
G1 X124.894 Y127.042 E24.44843
G1 X123.577 Y128.272 E24.50837
G1 X122.02 Y129.19 E24.56848
G1 X121.688 Y129.324 E24.58039
G1 X120.108 Y129.562 E24.63354
G1 X115.182 Y129.6 E24.79738
G1 X113.632 Y129.221 E24.85045
G1 X111.877 Y128.312 E24.91619
G1 X110.614 Y126.959 E24.97775
G1 X110.521 Y127.089 E24.98307
G1 X109.254 Y128.272 E25.04072
G1 X107.697 Y129.19 E25.10084
G1 X107.365 Y129.324 E25.11274
G1 X105.785 Y129.562 E25.16589
G1 X100.859 Y129.6 E25.32973
G1 X99.309 Y129.221 E25.3828
G1 X97.554 Y128.312 E25.44854
G1 X96.326 Y126.997 E25.50838
G1 X95.488 Y125.592 E25.56279
G1 X94.735 Y127.042 E25.61714
G1 X93.418 Y128.272 E25.67707
G1 X91.861 Y129.19 E25.73719
G1 X91.529 Y129.324 E25.7491
G1 X89.949 Y129.562 E25.80224
G1 X85.022 Y129.6 E25.96612
G1 X83.472 Y129.221 E26.01919
G1 X81.717 Y128.312 E26.08493
G1 X80.489 Y126.997 E26.14477
G1 X79.465 Y125.281 E26.21124
G1 X79.219 Y123.784 E26.26169
G1 X79.163 Y114.962 E26.55512
G1 X78.934 Y114.654 E26.56789
G1 X78.175 Y112.563 E26.64187
G1 X78.175 Y107.786 E26.80076
G1 X78.57 Y106.179 E26.8558
G1 X79.16 Y105.038 E26.89852
G1 X79.16 Y96.286 E27.18961
G1 X79.555 Y94.679 E27.24465
G1 X80.448 Y92.958 E27.30914
G1 X81.765 Y91.728 E27.36908
M204 S2000
G0 F7500 X82.005 Y92.051
M204 S500
G1 F1500 X83.472 Y91.181 E27.4258
G1 X83.759 Y91.065 E27.4361
G1 X85.294 Y90.834 E27.48773
G1 X90.111 Y90.8 E27.64795
G1 X91.57 Y91.157 E27.69791
G1 X93.219 Y92.011 E27.75967
G1 X94.371 Y93.245 E27.81582
G1 X95.333 Y94.857 E27.87825
G1 X95.504 Y95.895 E27.91324
G1 X95.767 Y94.822 E27.94999
G1 X96.607 Y93.203 E28.01065
G1 X97.841 Y92.051 E28.0668
G1 X99.308 Y91.181 E28.12353
G1 X99.595 Y91.065 E28.13382
G1 X101.13 Y90.834 E28.18545
G1 X105.947 Y90.8 E28.34567
G1 X107.406 Y91.157 E28.39563
G1 X109.055 Y92.011 E28.45739
G1 X110.207 Y93.245 E28.51354
G1 X110.582 Y93.873 E28.53787
G1 X110.93 Y93.203 E28.56298
G1 X112.164 Y92.051 E28.61913
G1 X113.631 Y91.181 E28.67586
G1 X113.918 Y91.065 E28.68615
G1 X115.453 Y90.834 E28.73778
G1 X120.27 Y90.8 E28.898
G1 X121.729 Y91.157 E28.94796
G1 X123.378 Y92.011 E29.00972
G1 X124.533 Y93.248 E29.06601
G1 X125.085 Y94.174 E29.10187
G1 X125.589 Y93.203 E29.13826
G1 X126.823 Y92.051 E29.1944
G1 X128.29 Y91.181 E29.25113
G1 X128.577 Y91.065 E29.26143
G1 X130.112 Y90.834 E29.31306
G1 X134.93 Y90.8 E29.47331
G1 X136.389 Y91.157 E29.52327
G1 X138.038 Y92.011 E29.58503
G1 X139.19 Y93.245 E29.64118
G1 X140.152 Y94.857 E29.70362
G1 X140.386 Y96.281 E29.75161
G1 X140.441 Y123.668 E30.66251
G1 X140.07 Y125.178 E30.71423
G1 X139.23 Y126.797 E30.77489
G1 X137.996 Y127.949 E30.83104
G1 X136.529 Y128.819 E30.88777
G1 X136.242 Y128.935 E30.89806
G1 X134.707 Y129.166 E30.94969
G1 X129.889 Y129.2 E31.10994
G1 X128.43 Y128.843 E31.1599
G1 X126.781 Y127.989 E31.22167
G1 X125.629 Y126.755 E31.27781
G1 X125.075 Y125.826 E31.31379
G1 X124.571 Y126.797 E31.35018
G1 X123.337 Y127.949 E31.40633
G1 X121.87 Y128.819 E31.46305
G1 X121.583 Y128.935 E31.47335
G1 X120.048 Y129.166 E31.52498
G1 X115.23 Y129.2 E31.68523
G1 X113.771 Y128.843 E31.73519
G1 X112.122 Y127.989 E31.79695
G1 X110.97 Y126.755 E31.8531
G1 X110.596 Y126.128 E31.87738
G1 X110.248 Y126.797 E31.90246
G1 X109.014 Y127.949 E31.95861
G1 X107.547 Y128.819 E32.01534
G1 X107.26 Y128.935 E32.02564
G1 X105.725 Y129.166 E32.07727
G1 X100.907 Y129.2 E32.23752
G1 X99.448 Y128.843 E32.28747
G1 X97.799 Y127.989 E32.34924
G1 X96.647 Y126.755 E32.40539
G1 X95.685 Y125.143 E32.46782
G1 X95.515 Y124.108 E32.50271
G1 X95.252 Y125.178 E32.53936
G1 X94.412 Y126.797 E32.60002
G1 X93.178 Y127.949 E32.65617
G1 X91.711 Y128.819 E32.7129
G1 X91.424 Y128.935 E32.72319
G1 X89.889 Y129.166 E32.77482
G1 X85.07 Y129.2 E32.93511
G1 X83.611 Y128.843 E32.98507
G1 X81.962 Y127.989 E33.04683
G1 X80.81 Y126.755 E33.10298
G1 X79.848 Y125.143 E33.16542
G1 X79.614 Y123.719 E33.21341
G1 X79.562 Y114.83 E33.50907
G1 X79.291 Y114.464 E33.52421
G1 X78.575 Y112.492 E33.59399
G1 X78.575 Y107.832 E33.74899
G1 X78.946 Y106.322 E33.8007
G1 X79.56 Y105.135 E33.84515
G1 X79.56 Y96.332 E34.13794
G1 X79.931 Y94.822 E34.18966
G1 X80.771 Y93.203 E34.25032
G1 X82.005 Y92.051 E34.30647
M204 S2000
G0 F7500 X82.247 Y92.372
M204 S500
G1 F1500 X83.621 Y91.552 E34.35969
G1 X83.862 Y91.455 E34.36833
G1 X85.354 Y91.23 E34.41851
G1 X90.062 Y91.2 E34.57511
G1 X91.431 Y91.535 E34.62198
G1 X92.974 Y92.334 E34.67977
G1 X94.05 Y93.487 E34.73223
G1 X94.95 Y94.995 E34.79064
G1 X95.172 Y96.346 E34.83618
G1 X95.194 Y106.396 E35.17044
G1 X95.796 Y105.232 E35.21403
G1 X95.796 Y96.379 E35.50848
G1 X96.144 Y94.964 E35.55694
G1 X96.93 Y93.448 E35.61374
G1 X98.083 Y92.372 E35.66619
G1 X99.457 Y91.552 E35.71941
G1 X99.698 Y91.455 E35.72805
G1 X101.19 Y91.23 E35.77824
G1 X105.898 Y91.2 E35.93483
G1 X107.267 Y91.535 E35.98171
G1 X108.81 Y92.334 E36.0395
G1 X109.886 Y93.487 E36.09195
G1 X110.607 Y94.694 E36.13872
G1 X111.253 Y93.448 E36.1854
G1 X112.406 Y92.372 E36.23785
G1 X113.78 Y91.552 E36.29107
G1 X114.021 Y91.455 E36.29971
G1 X115.513 Y91.23 E36.3499
G1 X120.221 Y91.2 E36.50649
G1 X121.59 Y91.535 E36.55337
G1 X123.133 Y92.334 E36.61116
G1 X124.209 Y93.487 E36.66361
G1 X125.109 Y94.996 E36.72205
G1 X125.912 Y93.448 E36.78005
G1 X127.065 Y92.372 E36.83251
G1 X128.439 Y91.552 E36.88572
G1 X128.68 Y91.455 E36.89437
G1 X130.172 Y91.23 E36.94455
G1 X134.881 Y91.2 E37.10118
G1 X136.25 Y91.535 E37.14805
G1 X137.793 Y92.334 E37.20585
G1 X138.869 Y93.487 E37.2583
G1 X139.769 Y94.995 E37.31671
G1 X139.991 Y96.346 E37.36225
G1 X140.041 Y123.621 E38.26942
G1 X139.693 Y125.036 E38.31788
G1 X138.907 Y126.552 E38.37468
G1 X137.754 Y127.628 E38.42713
G1 X136.38 Y128.448 E38.48035
G1 X136.139 Y128.545 E38.48899
G1 X134.647 Y128.77 E38.53918
G1 X129.938 Y128.8 E38.6958
G1 X128.569 Y128.465 E38.74268
G1 X127.026 Y127.666 E38.80047
G1 X125.95 Y126.513 E38.85293
G1 X125.05 Y125.005 E38.91134
G1 X124.248 Y126.552 E38.96929
G1 X123.095 Y127.628 E39.02175
G1 X121.721 Y128.448 E39.07497
G1 X121.48 Y128.545 E39.08361
G1 X119.988 Y128.77 E39.13379
G1 X115.279 Y128.8 E39.29042
G1 X113.91 Y128.465 E39.33729
G1 X112.367 Y127.666 E39.39509
G1 X111.291 Y126.513 E39.44754
