;FLAVOR:Marlin
;TIME:3099
;Filament used: 1.11526m
;Layer height: 0.12
;MINX:86.405
;MINY:85.252
;MINZ:0.12
;MAXX:134.733
;MAXY:134.736
;MAXZ:6.6
;TARGET_MACHINE.NAME:Creality Ender-3 S1
;Generated with Cura_SteamEngine 5.6.0
M82 ;absolute extrusion mode
; Ender 3 S1 Start G-code
; M413 S0 ; Disable power loss recovery
G92 E0 ; Reset Extruder

; Prep surfaces before auto home for better accuracy
M140 S60
M104 S200

G28 ; Home all axes
G1 Z10.0 F3000 ; Move Z Axis up little to prevent scratching of Heat Bed
G1 X0 Y0

M190 S60
M109 S200

G1 X0.1 Y20 Z0.3 F5000.0 ; Move to start position
G1 X0.1 Y200.0 Z0.3 F1500.0 E15 ; Draw the first line
G1 X0.4 Y200.0 Z0.3 F5000.0 ; Move to side a little
G1 X0.4 Y20 Z0.3 F1500.0 E30 ; Draw the second line
G92 E0 ; Reset Extruder
G1 Z2.0 F3000 ; Move Z Axis up little to prevent scratching of Heat Bed
G1 X5 Y20 Z0.3 F5000.0 ; Move over to prevent blob squish

G92 E0
G92 E0
G1 F2400 E-0.8
;LAYER_COUNT:55
;LAYER:0
M107
M204 S2000
G0 F7500 X88.082 Y88.287 Z0.12
M204 S500
;TYPE:SKIRT
G1 F2400 E0
G1 F1500 X89.655 Y86.816 E0.04298
G1 X91.252 Y85.878 E0.07994
G1 X92.044 Y85.556 E0.097
G1 X93.933 Y85.292 E0.13506
G1 X96.59 Y85.252 E0.18809
G1 X97.261 Y85.42 E0.2019
G1 X98.287 Y85.284 E0.22255
G1 X100.857 Y85.252 E0.27384
G1 X101.299 Y85.366 E0.28295
G1 X101.649 Y85.264 E0.29023
G1 X105.12 Y85.264 E0.35949
G1 X105.753 Y85.419 E0.3725
G1 X106.779 Y85.284 E0.39315
G1 X109.322 Y85.252 E0.4439
G1 X109.718 Y85.352 E0.45205
G1 X110.016 Y85.264 E0.45825
G1 X113.459 Y85.264 E0.52696
G1 X114.097 Y85.42 E0.54007
G1 X115.127 Y85.284 E0.5608
G1 X117.677 Y85.252 E0.6117
G1 X118.326 Y85.415 E0.62505
G1 X118.745 Y85.264 E0.63394
G1 X122.28 Y85.264 E0.70448
G1 X122.913 Y85.419 E0.71749
G1 X123.939 Y85.284 E0.73814
G1 X126.477 Y85.252 E0.78879
G1 X128.387 Y85.724 E0.82805
G1 X130.411 Y86.779 E0.8736
G1 X131.882 Y88.352 E0.91658
G1 X132.863 Y90.017 E0.95515
G1 X133.129 Y90.637 E0.96861
G1 X133.388 Y92.358 E1.00334
G1 X133.425 Y95.209 E1.06024
G1 X133.812 Y95.707 E1.07283
G1 X134.733 Y98.237 E1.12656
G1 X134.733 Y103.369 E1.22897
G1 X134.269 Y105.257 E1.26777
G1 X133.761 Y106.239 E1.28983
G1 X133.761 Y109.818 E1.36126
G1 X133.296 Y111.712 E1.40018
G1 X133.067 Y112.156 E1.41015
G1 X133.066 Y127.789 E1.72212
G1 X132.6 Y129.685 E1.76108
G1 X131.547 Y131.713 E1.80668
G1 X129.971 Y133.187 E1.84975
G1 X128.247 Y134.209 E1.88974
G1 X127.765 Y134.412 E1.90018
G1 X125.923 Y134.688 E1.93735
G1 X119.686 Y134.736 E2.06182
G1 X118.571 Y134.468 E2.0847
G1 X117.112 Y134.688 E2.11415
G1 X110.882 Y134.736 E2.23848
G1 X109.987 Y134.516 E2.25687
G1 X109.386 Y134.736 E2.26964
G1 X102.524 Y134.736 E2.40658
G1 X101.566 Y134.497 E2.42628
G1 X100.356 Y134.681 E2.45071
G1 X94.045 Y134.736 E2.57666
G1 X92.173 Y134.279 E2.61511
G1 X90.124 Y133.22 E2.66114
G1 X88.647 Y131.638 E2.70433
G1 X87.704 Y130.044 E2.74129
G1 X87.4 Y129.296 E2.7574
G1 X87.15 Y127.637 E2.79088
G1 X87.101 Y123.859 E2.86628
G1 X87.07 Y123.356 E2.87634
G1 X87.101 Y119.859 E2.94613
G1 X87.1 Y112.179 E3.09939
G1 X86.658 Y111.061 E3.12338
G1 X86.428 Y109.327 E3.15829
G1 X86.405 Y106.968 E3.20537
G1 X86.562 Y106.356 E3.21798
G1 X86.563 Y92.211 E3.50026
G1 X87.029 Y90.315 E3.53922
G1 X88.082 Y88.287 E3.58482
M204 S2000
G0 F7500 X88.405 Y88.532
M204 S500
G1 F1500 X89.894 Y87.14 E3.6255
G1 X91.455 Y86.223 E3.66163
G1 X92.148 Y85.945 E3.67653
G1 X93.939 Y85.692 E3.71262
G1 X96.544 Y85.653 E3.76462
G1 X97.237 Y85.826 E3.77887
G1 X98.292 Y85.684 E3.80011
G1 X100.807 Y85.653 E3.85031
G1 X101.319 Y85.784 E3.86085
G1 X101.649 Y85.664 E3.86786
G1 X105.07 Y85.664 E3.93613
G1 X105.729 Y85.825 E3.94967
G1 X106.784 Y85.684 E3.97091
G1 X109.275 Y85.653 E4.02062
G1 X109.727 Y85.766 E4.02992
G1 X110.075 Y85.664 E4.03716
G1 X113.409 Y85.664 E4.10369
G1 X114.073 Y85.826 E4.11733
G1 X115.132 Y85.684 E4.13865
G1 X117.63 Y85.653 E4.18851
G1 X118.347 Y85.833 E4.20326
G1 X118.814 Y85.664 E4.21317
G1 X122.23 Y85.664 E4.28134
G1 X122.889 Y85.825 E4.29488
G1 X123.944 Y85.684 E4.31612
G1 X126.432 Y85.653 E4.36577
G1 X128.242 Y86.1 E4.40298
G1 X130.167 Y87.103 E4.4463
G1 X131.558 Y88.591 E4.48695
G1 X132.518 Y90.22 E4.52468
G1 X132.74 Y90.744 E4.53604
G1 X132.992 Y92.418 E4.56982
G1 X133.027 Y95.348 E4.6283
G1 X133.457 Y95.902 E4.64229
G1 X134.333 Y98.308 E4.69339
G1 X134.333 Y103.323 E4.79347
G1 X133.893 Y105.114 E4.83027
G1 X133.361 Y106.142 E4.85337
G1 X133.361 Y109.772 E4.92581
G1 X132.92 Y111.569 E4.96274
G1 X132.667 Y112.059 E4.97374
G1 X132.666 Y127.743 E5.28673
G1 X132.224 Y129.542 E5.3237
G1 X131.224 Y131.468 E5.36701
G1 X129.732 Y132.863 E5.40777
G1 X128.092 Y133.84 E5.44587
G1 X127.657 Y134.023 E5.45528
G1 X125.864 Y134.292 E5.49147
G1 X119.733 Y134.336 E5.61382
G1 X118.588 Y134.06 E5.63732
G1 X117.052 Y134.292 E5.66832
G1 X110.928 Y134.336 E5.79054
G1 X109.963 Y134.098 E5.81037
G1 X109.314 Y134.336 E5.82417
G1 X102.573 Y134.336 E5.95869
G1 X101.585 Y134.09 E5.97901
G1 X100.352 Y134.281 E6.00391
G1 X94.093 Y134.336 E6.12882
G1 X92.312 Y133.901 E6.16541
G1 X90.369 Y132.896 E6.20906
G1 X88.971 Y131.399 E6.24994
G1 X88.075 Y129.893 E6.28491
G1 X87.789 Y129.189 E6.30007
G1 X87.546 Y127.577 E6.3326
G1 X87.501 Y123.854 E6.40691
G1 X87.47 Y123.36 E6.41678
G1 X87.501 Y119.863 E6.48657
G1 X87.5 Y112.103 E6.64143
G1 X87.049 Y110.962 E6.66592
G1 X86.825 Y109.274 E6.6999
G1 X86.806 Y107.018 E6.74492
G1 X86.962 Y106.408 E6.75748
G1 X86.963 Y92.257 E7.03988
G1 X87.405 Y90.458 E7.07685
G1 X88.405 Y88.532 E7.12016
M204 S2000
G0 F7500 X88.728 Y88.777
M204 S500
G1 F1500 X87.782 Y90.6 E7.16115
G1 X87.363 Y92.304 E7.19616
G1 X87.362 Y106.456 E7.47858
G1 X87.206 Y107.065 E7.49113
G1 X87.222 Y109.221 E7.53415
G1 X87.44 Y110.862 E7.56719
G1 X87.841 Y111.891 E7.58923
G1 X87.9 Y112.006 E7.59181
G1 X87.901 Y119.867 E7.74868
G1 X87.87 Y123.364 E7.81847
G1 X87.901 Y123.85 E7.82819
G1 X87.942 Y127.517 E7.90137
G1 X88.179 Y129.087 E7.93306
G1 X88.419 Y129.688 E7.94597
G1 X89.295 Y131.16 E7.98016
G1 X90.614 Y132.572 E8.01872
G1 X92.451 Y133.523 E8.06
G1 X94.141 Y133.936 E8.09472
G1 X100.348 Y133.881 E8.21859
G1 X101.603 Y133.682 E8.24395
G1 X102.622 Y133.936 E8.2649
G1 X109.242 Y133.936 E8.39701
G1 X109.939 Y133.681 E8.41182
G1 X110.974 Y133.936 E8.4331
G1 X116.993 Y133.896 E8.55321
G1 X118.487 Y133.673 E8.58336
G1 X118.585 Y133.648 E8.58538
G1 X119.78 Y133.936 E8.60991
G1 X125.805 Y133.896 E8.73015
G1 X127.55 Y133.634 E8.76536
G1 X127.887 Y133.496 E8.77263
G1 X129.493 Y132.539 E8.80994
G1 X130.901 Y131.223 E8.8484
G1 X131.847 Y129.4 E8.88938
G1 X132.266 Y127.696 E8.9244
G1 X132.267 Y111.963 E9.23837
G1 X132.543 Y111.428 E9.25038
G1 X132.961 Y109.726 E9.28536
G1 X132.961 Y106.261 E9.35451
G1 X132.937 Y106.09 E9.35795
G1 X133.517 Y104.971 E9.3831
G1 X133.933 Y103.277 E9.41791
G1 X133.933 Y98.379 E9.51566
G1 X133.102 Y96.097 E9.56412
G1 X132.628 Y95.487 E9.57954
G1 X132.596 Y92.478 E9.63959
G1 X132.351 Y90.851 E9.67243
G1 X132.173 Y90.423 E9.68168
G1 X131.234 Y88.83 E9.71858
G1 X129.923 Y87.427 E9.7569
G1 X128.097 Y86.476 E9.79798
G1 X126.387 Y86.054 E9.83313
G1 X123.949 Y86.084 E9.88179
G1 X122.866 Y86.232 E9.9036
G1 X122.18 Y86.064 E9.9177
G1 X118.884 Y86.064 E9.98347
G1 X118.368 Y86.25 E9.99442
G1 X117.583 Y86.054 E10.01056
G1 X115.137 Y86.084 E10.05938
G1 X114.05 Y86.233 E10.08128
G1 X113.359 Y86.064 E10.09547
G1 X110.075 Y86.064 E10.16101
G1 X109.75 Y86.184 E10.16792
G1 X109.229 Y86.054 E10.17864
G1 X106.789 Y86.084 E10.22733
G1 X105.706 Y86.232 E10.24915
G1 X105.02 Y86.064 E10.26324
G1 X101.72 Y86.064 E10.3291
G1 X101.34 Y86.203 E10.33717
G1 X100.758 Y86.054 E10.34916
G1 X98.297 Y86.084 E10.39828
G1 X97.214 Y86.232 E10.42009
G1 X96.498 Y86.054 E10.43481
G1 X93.945 Y86.092 E10.48577
G1 X92.251 Y86.335 E10.51992
G1 X91.604 Y86.594 E10.53382
G1 X90.136 Y87.461 E10.56785
G1 X88.728 Y88.777 E10.60631
M204 S2000
G0 F7500 X89.051 Y89.022
M204 S500
G1 F1500 X90.376 Y87.784 E10.6425
G1 X91.753 Y86.965 E10.67447
G1 X92.353 Y86.725 E10.68736
G1 X93.951 Y86.492 E10.71959
G1 X96.452 Y86.455 E10.76951
G1 X97.192 Y86.639 E10.78472
G1 X98.302 Y86.484 E10.80709
G1 X100.709 Y86.455 E10.85513
G1 X101.361 Y86.621 E10.86855
G1 X101.791 Y86.464 E10.87769
G1 X104.97 Y86.464 E10.94113
G1 X105.684 Y86.639 E10.9558
G1 X106.794 Y86.484 E10.97817
G1 X109.184 Y86.455 E11.02587
G1 X109.772 Y86.601 E11.03796
G1 X110.145 Y86.464 E11.04589
G1 X113.313 Y86.464 E11.10911
G1 X114.031 Y86.64 E11.12386
G1 X115.142 Y86.484 E11.14625
G1 X117.537 Y86.455 E11.19405
G1 X118.389 Y86.668 E11.21157
G1 X118.953 Y86.464 E11.22354
G1 X122.13 Y86.464 E11.28694
G1 X122.844 Y86.639 E11.30161
G1 X123.954 Y86.484 E11.32398
G1 X126.342 Y86.455 E11.37164
G1 X127.952 Y86.852 E11.40473
G1 X129.679 Y87.751 E11.44358
G1 X130.91 Y89.069 E11.47957
G1 X131.828 Y90.626 E11.51564
G1 X131.962 Y90.958 E11.52279
G1 X132.2 Y92.538 E11.55467
G1 X132.229 Y95.627 E11.61632
G1 X132.748 Y96.294 E11.63319
G1 X133.533 Y98.45 E11.67898
G1 X133.533 Y103.231 E11.77439
G1 X133.141 Y104.828 E11.8072
G1 X132.521 Y106.024 E11.83408
G1 X132.561 Y106.261 E11.83888
G1 X132.561 Y109.68 E11.90711
G1 X132.167 Y111.285 E11.94009
G1 X131.867 Y111.866 E11.95314
G1 X131.866 Y127.65 E12.26813
G1 X131.471 Y129.257 E12.30115
G1 X130.578 Y130.978 E12.33984
G1 X129.254 Y132.215 E12.376
G1 X127.682 Y133.152 E12.41252
G1 X127.439 Y133.247 E12.41773
G1 X125.802 Y133.496 E12.45077
G1 X119.827 Y133.536 E12.57002
G1 X118.574 Y133.234 E12.59574
G1 X118.427 Y133.278 E12.5988
G1 X116.99 Y133.496 E12.6278
G1 X111.02 Y133.536 E12.74694
G1 X109.915 Y133.264 E12.76965
G1 X109.171 Y133.536 E12.78546
G1 X102.671 Y133.536 E12.91518
G1 X101.62 Y133.274 E12.93679
G1 X100.344 Y133.481 E12.96259
G1 X94.189 Y133.536 E13.08542
G1 X92.59 Y133.145 E13.11827
G1 X90.859 Y132.248 E13.15718
G1 X89.619 Y130.921 E13.19342
G1 X88.763 Y129.483 E13.22682
G1 X88.568 Y128.983 E13.23753
G1 X88.338 Y127.457 E13.26833
G1 X88.301 Y123.846 E13.34039
G1 X88.27 Y123.368 E13.34995
G1 X88.301 Y119.871 E13.41974
G1 X88.3 Y111.905 E13.57871
G1 X88.214 Y111.746 E13.58232
G1 X87.829 Y110.759 E13.60346
G1 X87.622 Y109.218 E13.63449
G1 X87.606 Y107.112 E13.67652
G1 X87.762 Y106.504 E13.68904
G1 X87.763 Y92.35 E13.9715
G1 X88.158 Y90.743 E14.00453
G1 X89.051 Y89.022 E14.04322
M204 S2000
G0 F7500 X89.374 Y89.267
M204 S500
G1 F1500 X90.617 Y88.106 E14.07716
G1 X91.957 Y87.309 E14.10828
G1 X92.457 Y87.114 E14.11899
G1 X93.957 Y86.892 E14.14925
G1 X96.407 Y86.856 E14.19814
G1 X97.172 Y87.046 E14.21387
G1 X98.307 Y86.884 E14.23675
G1 X100.661 Y86.856 E14.28373
G1 X101.382 Y87.039 E14.29858
G1 X101.862 Y86.864 E14.30877
G1 X104.924 Y86.864 E14.36988
G1 X105.665 Y87.046 E14.38511
G1 X106.799 Y86.884 E14.40797
G1 X109.139 Y86.856 E14.45467
G1 X109.795 Y87.019 E14.46816
G1 X110.215 Y86.864 E14.47709
G1 X113.263 Y86.864 E14.53792
G1 X114.01 Y87.047 E14.55326
G1 X115.147 Y86.884 E14.57619
G1 X117.491 Y86.856 E14.62297
G1 X118.41 Y87.086 E14.64187
G1 X119.023 Y86.864 E14.65488
G1 X122.084 Y86.864 E14.71597
G1 X122.825 Y87.046 E14.73119
G1 X123.959 Y86.884 E14.75405
G1 X126.297 Y86.856 E14.80072
G1 X127.807 Y87.228 E14.83175
G1 X129.435 Y88.075 E14.86837
G1 X130.587 Y89.309 E14.90206
G1 X131.457 Y90.776 E14.9361
G1 X131.573 Y91.063 E14.94228
G1 X131.804 Y92.598 E14.97325
G1 X131.83 Y95.766 E15.03648
G1 X132.394 Y96.491 E15.05481
G1 X133.133 Y98.521 E15.09792
G1 X133.133 Y103.185 E15.19099
G1 X132.765 Y104.685 E15.22182
G1 X132.101 Y105.966 E15.25061
G1 X132.161 Y106.261 E15.25662
G1 X132.161 Y109.634 E15.32393
G1 X131.79 Y111.144 E15.35496
G1 X131.467 Y111.77 E15.36902
G1 X131.466 Y127.604 E15.685
G1 X131.095 Y129.114 E15.71603
G1 X130.255 Y130.733 E15.75243
G1 X129.015 Y131.891 E15.78629
G1 X127.477 Y132.808 E15.82202
G1 X127.334 Y132.859 E15.82505
G1 X125.799 Y133.096 E15.85605
G1 X119.874 Y133.136 E15.97429
G1 X118.555 Y132.818 E16.00136
G1 X118.366 Y132.883 E16.00535
G1 X116.987 Y133.096 E16.0332
G1 X111.066 Y133.136 E16.15136
G1 X109.892 Y132.847 E16.17549
G1 X109.1 Y133.136 E16.19231
G1 X102.72 Y133.136 E16.31963
G1 X101.588 Y132.854 E16.34291
G1 X101.456 Y132.895 E16.34567
G1 X100.34 Y133.081 E16.36825
G1 X94.237 Y133.136 E16.49005
G1 X92.729 Y132.767 E16.52103
G1 X91.104 Y131.925 E16.55755
G1 X89.943 Y130.682 E16.5915
G1 X89.107 Y129.278 E16.62411
G1 X88.958 Y128.883 E16.63253
G1 X88.734 Y127.397 E16.66252
G1 X88.701 Y123.842 E16.73347
G1 X88.67 Y123.372 E16.74287
G1 X88.701 Y119.875 E16.81266
G1 X88.7 Y111.798 E16.97384
G1 X88.587 Y111.601 E16.97837
G1 X88.218 Y110.656 E16.99862
G1 X88.022 Y109.215 E17.02764
G1 X88.006 Y107.16 E17.06865
G1 X88.162 Y106.553 E17.08116
G1 X88.163 Y92.396 E17.36368
G1 X88.534 Y90.886 E17.39471
G1 X89.374 Y89.267 E17.4311
M204 S2000
G0 F7500 X89.697 Y89.512
M204 S500
G1 F1500 X90.856 Y88.43 E17.46275
G1 X92.162 Y87.653 E17.49307
G1 X92.557 Y87.504 E17.5015
G1 X93.963 Y87.292 E17.52987
G1 X96.362 Y87.257 E17.57775
G1 X97.153 Y87.453 E17.59402
G1 X98.312 Y87.284 E17.61739
G1 X100.613 Y87.257 E17.66331
G1 X101.403 Y87.457 E17.67957
G1 X101.933 Y87.264 E17.69083
G1 X104.878 Y87.264 E17.7496
G1 X105.647 Y87.453 E17.7654
G1 X106.804 Y87.284 E17.78874
G1 X109.094 Y87.257 E17.83444
G1 X109.818 Y87.436 E17.84932
G1 X110.285 Y87.264 E17.85926
G1 X113.213 Y87.264 E17.91769
G1 X113.99 Y87.454 E17.93365
G1 X115.152 Y87.284 E17.95708
G1 X117.444 Y87.257 E18.00283
G1 X118.431 Y87.504 E18.02313
G1 X119.093 Y87.264 E18.03718
G1 X122.038 Y87.264 E18.09595
G1 X122.807 Y87.453 E18.11176
G1 X123.964 Y87.284 E18.13509
G1 X126.252 Y87.257 E18.18075
G1 X127.664 Y87.605 E18.20978
G1 X129.19 Y88.398 E18.24409
G1 X130.266 Y89.551 E18.27557
G1 X131.086 Y90.925 E18.3075
G1 X131.183 Y91.166 E18.31268
G1 X131.408 Y92.658 E18.34279
G1 X131.431 Y95.905 E18.40759
G1 X132.04 Y96.688 E18.42739
G1 X132.733 Y98.592 E18.46782
G1 X132.733 Y103.139 E18.55856
G1 X132.389 Y104.542 E18.58739
G1 X131.677 Y105.915 E18.61826
G1 X131.761 Y106.261 E18.62536
G1 X131.761 Y109.588 E18.69176
G1 X131.414 Y111.001 E18.72079
G1 X131.067 Y111.673 E18.73588
G1 X131.066 Y127.557 E19.05287
G1 X130.718 Y128.972 E19.08195
G1 X129.932 Y130.488 E19.11602
G1 X128.776 Y131.567 E19.14758
G1 X127.272 Y132.464 E19.18253
G1 X125.796 Y132.696 E19.21234
G1 X119.921 Y132.736 E19.32959
G1 X118.523 Y132.399 E19.35829
G1 X118.304 Y132.488 E19.363
G1 X116.984 Y132.696 E19.38967
G1 X111.112 Y132.736 E19.50686
G1 X109.869 Y132.43 E19.5324
G1 X109.029 Y132.736 E19.55024
G1 X102.769 Y132.736 E19.67517
G1 X101.569 Y132.437 E19.69985
G1 X101.39 Y132.5 E19.70363
G1 X100.274 Y132.686 E19.72621
G1 X94.285 Y132.736 E19.84573
G1 X92.868 Y132.389 E19.87485
G1 X91.349 Y131.602 E19.90899
G1 X90.267 Y130.443 E19.94063
G1 X89.451 Y129.073 E19.97245
G1 X89.348 Y128.784 E19.97857
G1 X89.13 Y127.337 E20.00778
G1 X89.101 Y123.828 E20.0778
G1 X89.07 Y123.375 E20.08687
G1 X89.093 Y119.974 E20.15474
G1 X89.101 Y119.898 E20.15626
G1 X89.1 Y111.685 E20.32016
G1 X88.96 Y111.455 E20.32554
G1 X88.607 Y110.552 E20.34488
G1 X88.422 Y109.212 E20.37188
G1 X88.406 Y107.208 E20.41187
G1 X88.562 Y106.603 E20.42434
G1 X88.563 Y92.443 E20.70692
G1 X88.911 Y91.028 E20.736
G1 X89.697 Y89.512 E20.77008
M204 S2000
G0 F7500 X90.02 Y89.757
M204 S500
G1 F1500 X91.095 Y88.754 E20.79942
G1 X92.367 Y87.997 E20.82895
G1 X92.656 Y87.894 E20.83508
G1 X94.023 Y87.688 E20.86267
G1 X96.317 Y87.658 E20.90845
G1 X97.136 Y87.86 E20.92528
G1 X98.317 Y87.684 E20.94911
G1 X100.565 Y87.658 E20.99398
G1 X101.424 Y87.875 E21.01166
G1 X102.004 Y87.664 E21.02397
G1 X104.832 Y87.664 E21.08041
G1 X105.63 Y87.86 E21.09681
G1 X106.809 Y87.684 E21.1206
G1 X109.049 Y87.658 E21.1653
G1 X109.842 Y87.854 E21.1816
G1 X110.356 Y87.664 E21.19254
G1 X113.163 Y87.664 E21.24855
G1 X113.971 Y87.862 E21.26516
G1 X115.157 Y87.684 E21.28909
G1 X117.397 Y87.658 E21.33379
G1 X118.452 Y87.922 E21.3555
G1 X119.163 Y87.664 E21.37059
G1 X121.992 Y87.664 E21.42705
G1 X122.79 Y87.86 E21.44344
G1 X123.969 Y87.684 E21.46723
G1 X126.207 Y87.658 E21.5119
G1 X127.521 Y87.982 E21.53891
G1 X128.945 Y88.721 E21.57092
G1 X129.945 Y89.793 E21.60018
G1 X130.743 Y91.13 E21.63125
G1 X130.795 Y91.273 E21.63429
G1 X131.008 Y92.661 E21.66231
G1 X131.032 Y96.044 E21.72982
